; Generated with MatterSlice 1.0
; filamentDiameter = 1.72
; extrusionWidth = 0.4
; firstLayerExtrusionWidth = 0.4
; layerThickness = 0.2
; firstLayerThickness = 0.3
; automatic settings before start_gcode
G21
M107
M190 S60
M104 T0 S206.5
M109 T0 S206.5
T0
; settings from start_gcode
G28
M114
; automatic settings after start_gcode
T0
G90
G92 E0
M82
; Layer count: 85
; LAYER:0
M107
G1 X30.7 Y-75.43 Z2.214 F13500
; TYPE:SKIRT
G1 X30.7 Y-75.43 Z2.214
G1  F6600
G1 X32.31 Y-74.86 Z2.229 E0.088 F900
G1 X33.75 Y-73.96 Z2.245 E0.176
G1 X34.96 Y-72.75 Z2.26 E0.264
G1 X35.87 Y-71.31 Z2.275 E0.353
G1 X36.43 Y-69.69 Z2.289 E0.441
G1 X36.62 Y-68 Z2.3 E0.529
G1 X36.43 Y-66.3 Z2.308 E0.617
G1 X35.87 Y-64.69 Z2.313 E0.705
G1 X34.96 Y-63.24 Z2.315 E0.794
G1 X33.75 Y-62.04 Z2.313 E0.881
G1 X32.6 Y-61.31 Z2.308 E0.952
G1 X32.6 Y61.31 Z2.459 E7.285
G1 X33.75 Y62.04 Z2.465 E7.355
G1 X34.96 Y63.25 Z2.47 E7.443
G1 X35.87 Y64.69 Z2.472 E7.532
G1 X36.43 Y66.3 Z2.471 E7.62
G1 X36.62 Y68 Z2.466 E7.708
G1 X36.43 Y69.7 Z2.459 E7.796
G1 X35.87 Y71.31 Z2.449 E7.884
G1 X34.96 Y72.75 Z2.436 E7.973
G1 X33.75 Y73.96 Z2.423 E8.06
G1 X32.31 Y74.87 Z2.408 E8.149
G1 X30.7 Y75.43 Z2.393 E8.237
G1 X29 Y75.62 Z2.379 E8.325
G1 X27.3 Y75.43 Z2.366 E8.413
G1 X25.69 Y74.87 Z2.356 E8.501
G1 X24.25 Y73.96 Z2.347 E8.589
G1 X23.04 Y72.75 Z2.342 E8.677
G1 X22.32 Y71.6 Z2.341 E8.748
G1 X11.4 Y71.6 Z2.254 E9.311
G1 X11.4 Y21.6 Z2.433 E11.893
G1 X-6.4 Y21.6 Z2.331 E12.813
G1 X-6.4 Y71.6 Z2.153 E15.395
G1 X-22.31 Y71.6 Z2.124 E16.217
G1 X-23.04 Y72.75 Z2.118 E16.287
G1 X-24.24 Y73.96 Z2.112 E16.375
G1 X-25.69 Y74.87 Z2.106 E16.463
G1 X-27.3 Y75.43 Z2.101 E16.551
G1 X-29 Y75.62 Z2.097 E16.639
G1 X-30.69 Y75.43 Z2.095 E16.728
G1 X-32.31 Y74.87 Z2.094 E16.816
G1 X-33.75 Y73.96 Z2.095 E16.904
G1 X-34.96 Y72.75 Z2.097 E16.992
G1 X-35.87 Y71.31 Z2.1 E17.08
G1 X-36.43 Y69.7 Z2.105 E17.168
G1 X-36.62 Y68 Z2.111 E17.256
G1 X-36.43 Y66.3 Z2.117 E17.344
G1 X-35.87 Y64.69 Z2.124 E17.432
G1 X-34.96 Y63.25 Z2.131 E17.521
G1 X-33.75 Y62.04 Z2.137 E17.609
G1 X-32.6 Y61.31 Z2.142 E17.679
G1 X-32.6 Y-61.31 Z2.029 E24.012
G1 X-33.75 Y-62.04 Z2.023 E24.082
G1 X-34.96 Y-63.24 Z2.015 E24.17
G1 X-35.87 Y-64.69 Z2.006 E24.258
G1 X-36.43 Y-66.3 Z1.996 E24.347
G1 X-36.62 Y-68 Z1.986 E24.435
G1 X-36.43 Y-69.69 Z1.976 E24.523
G1 X-35.87 Y-71.31 Z1.968 E24.611
G1 X-34.96 Y-72.75 Z1.961 E24.699
G1 X-33.75 Y-73.96 Z1.955 E24.787
G1 X-32.31 Y-74.86 Z1.952 E24.875
G1 X-30.69 Y-75.43 Z1.951 E24.963
G1 X-29 Y-75.62 Z1.952 E25.052
G1 X-27.3 Y-75.43 Z1.955 E25.14
G1 X-25.69 Y-74.86 Z1.96 E25.228
G1 X-24.24 Y-73.96 Z1.967 E25.316
G1 X-23.04 Y-72.75 Z1.976 E25.404
G1 X-22.31 Y-71.6 Z1.983 E25.475
G1 X22.32 Y-71.6 Z2.174 E27.779
G1 X23.04 Y-72.75 Z2.173 E27.85
G1 X24.25 Y-73.96 Z2.175 E27.938
G1 X25.69 Y-74.86 Z2.18 E28.026
G1 X27.3 Y-75.43 Z2.189 E28.114
G1 X29 Y-75.62 Z2.2 E28.202
G1 X30.7 Y-75.43 Z2.214 E28.29
G1 X30.61 Y-75.04 Z2.215 F13500
G1 X32.13 Y-74.5 Z2.23 E28.374 F900
G1 X33.5 Y-73.64 Z2.245 E28.458
G1 X34.64 Y-72.5 Z2.26 E28.541
G1 X35.51 Y-71.13 Z2.274 E28.624
G1 X36.04 Y-69.6 Z2.286 E28.708
G1 X36.22 Y-68 Z2.297 E28.791
G1 X36.04 Y-66.39 Z2.305 E28.875
G1 X35.51 Y-64.86 Z2.309 E28.958
G1 X34.64 Y-63.49 Z2.311 E29.042
G1 X33.5 Y-62.35 Z2.309 E29.125
G1 X32.2 Y-61.53 Z2.304 E29.205
G1 X32.2 Y61.54 Z2.455 E35.561
G1 X33.5 Y62.36 Z2.462 E35.64
G1 X34.64 Y63.5 Z2.467 E35.724
G1 X35.51 Y64.87 Z2.469 E35.807
G1 X36.04 Y66.39 Z2.468 E35.891
G1 X36.22 Y68 Z2.463 E35.974
G1 X36.04 Y69.61 Z2.456 E36.058
G1 X35.51 Y71.13 Z2.446 E36.141
G1 X34.64 Y72.5 Z2.435 E36.225
G1 X33.5 Y73.64 Z2.422 E36.308
G1 X32.13 Y74.5 Z2.408 E36.392
G1 X30.61 Y75.04 Z2.394 E36.475
G1 X29 Y75.22 Z2.38 E36.559
G1 X27.39 Y75.04 Z2.368 E36.642
G1 X25.87 Y74.5 Z2.358 E36.725
G1 X24.5 Y73.64 Z2.351 E36.809
G1 X23.36 Y72.5 Z2.346 E36.892
G1 X22.54 Y71.2 Z2.344 E36.972
G1 X11.8 Y71.2 Z2.259 E37.526
G1 X11.8 Y21.2 Z2.438 E40.108
G1 X-6.8 Y21.2 Z2.332 E41.069
G1 X-6.8 Y71.2 Z2.153 E43.651
G1 X-22.53 Y71.2 Z2.125 E44.464
G1 X-23.35 Y72.5 Z2.119 E44.543
G1 X-24.49 Y73.64 Z2.113 E44.626
G1 X-25.86 Y74.5 Z2.107 E44.71
G1 X-27.39 Y75.04 Z2.102 E44.794
G1 X-29 Y75.22 Z2.099 E44.877
G1 X-30.6 Y75.04 Z2.096 E44.96
G1 X-32.13 Y74.5 Z2.096 E45.044
G1 X-33.5 Y73.64 Z2.096 E45.127
G1 X-34.64 Y72.5 Z2.098 E45.211
G1 X-35.5 Y71.13 Z2.102 E45.294
G1 X-36.04 Y69.61 Z2.106 E45.378
G1 X-36.22 Y68 Z2.111 E45.461
G1 X-36.04 Y66.39 Z2.117 E45.544
G1 X-35.5 Y64.87 Z2.124 E45.628
G1 X-34.64 Y63.5 Z2.13 E45.711
G1 X-33.5 Y62.36 Z2.137 E45.795
G1 X-32.2 Y61.54 Z2.142 E45.874
G1 X-32.2 Y-61.53 Z2.028 E52.23
G1 X-33.5 Y-62.35 Z2.022 E52.31
G1 X-34.64 Y-63.49 Z2.014 E52.393
G1 X-35.5 Y-64.86 Z2.005 E52.476
G1 X-36.04 Y-66.39 Z1.996 E52.56
G1 X-36.22 Y-68 Z1.986 E52.643
G1 X-36.04 Y-69.6 Z1.977 E52.727
G1 X-35.5 Y-71.13 Z1.969 E52.81
G1 X-34.64 Y-72.5 Z1.963 E52.894
G1 X-33.5 Y-73.64 Z1.957 E52.977
G1 X-32.13 Y-74.5 Z1.954 E53.061
G1 X-30.6 Y-75.04 Z1.953 E53.144
G1 X-29 Y-75.22 Z1.954 E53.228
G1 X-27.39 Y-75.04 Z1.957 E53.311
G1 X-25.86 Y-74.5 Z1.962 E53.395
G1 X-24.49 Y-73.64 Z1.969 E53.478
G1 X-23.35 Y-72.5 Z1.977 E53.562
G1 X-22.53 Y-71.2 Z1.985 E53.641
G1 X22.54 Y-71.2 Z2.178 E55.969
G1 X23.36 Y-72.5 Z2.177 E56.048
G1 X24.5 Y-73.64 Z2.179 E56.132
G1 X25.87 Y-74.5 Z2.184 E56.215
G1 X27.39 Y-75.04 Z2.192 E56.299
G1 X29 Y-75.22 Z2.203 E56.382
G1 X30.61 Y-75.04 Z2.215 E56.466
G1  E53.466 F6600
G1 X30.61 Y-75.04 Z5.215
G1 X-25.18 Y67.8 Z5.132 F13500
; TYPE:WALL-OUTER
G1 X-25.18 Y67.8 Z2.132
G1  E56.466 F6600
G1 X-25.29 Y68.85 Z2.128 E56.52 F900
G1 X-25.58 Y69.65 Z2.125 E56.564
G1 X-26.03 Y70.37 Z2.121 E56.608
G1 X-26.63 Y70.97 Z2.118 E56.651
G1 X-27.35 Y71.42 Z2.115 E56.695
G1 X-28.15 Y71.7 Z2.113 E56.739
G1 X-29 Y71.8 Z2.111 E56.783
G1 X-29.84 Y71.7 Z2.11 E56.827
G1 X-30.65 Y71.42 Z2.109 E56.871
G1 X-31.37 Y70.97 Z2.11 E56.915
G1 X-31.97 Y70.37 Z2.111 E56.959
G1 X-32.42 Y69.65 Z2.112 E57.002
G1 X-32.7 Y68.85 Z2.115 E57.046
G1 X-32.8 Y68 Z2.118 E57.09
G1 X-32.7 Y67.15 Z2.121 E57.134
G1 X-32.42 Y66.35 Z2.124 E57.178
G1 X-31.97 Y65.63 Z2.128 E57.222
G1 X-31.37 Y65.03 Z2.131 E57.266
G1 X-30.65 Y64.58 Z2.134 E57.31
G1 X-29.84 Y64.3 Z2.136 E57.354
G1 X-28.8 Y64.18 Z2.139 E57.408
G1 X-28.8 Y-64.18 Z2.017 E64.037
G1 X-29.84 Y-64.29 Z2.015 E64.091
G1 X-30.65 Y-64.57 Z2.013 E64.135
G1 X-31.37 Y-65.03 Z2.009 E64.179
G1 X-31.97 Y-65.63 Z2.005 E64.223
G1 X-32.42 Y-66.35 Z2 E64.267
G1 X-32.7 Y-67.15 Z1.996 E64.311
G1 X-32.8 Y-68 Z1.991 E64.354
G1 X-32.7 Y-68.84 Z1.986 E64.398
G1 X-32.42 Y-69.65 Z1.982 E64.442
G1 X-31.97 Y-70.37 Z1.978 E64.486
G1 X-31.37 Y-70.96 Z1.975 E64.53
G1 X-30.65 Y-71.42 Z1.974 E64.574
G1 X-29.84 Y-71.7 Z1.973 E64.618
G1 X-29 Y-71.8 Z1.974 E64.662
G1 X-28.15 Y-71.7 Z1.975 E64.706
G1 X-27.35 Y-71.42 Z1.978 E64.75
G1 X-26.63 Y-70.96 Z1.981 E64.794
G1 X-26.03 Y-70.37 Z1.985 E64.837
G1 X-25.58 Y-69.65 Z1.99 E64.881
G1 X-25.29 Y-68.84 Z1.995 E64.925
G1 X-25.18 Y-67.8 Z2.001 E64.98
G1 X25.18 Y-67.8 Z2.217 E67.58
G1 X25.3 Y-68.84 Z2.212 E67.635
G1 X25.58 Y-69.65 Z2.209 E67.678
G1 X26.03 Y-70.37 Z2.209 E67.722
G1 X26.63 Y-70.96 Z2.21 E67.766
G1 X27.35 Y-71.42 Z2.212 E67.81
G1 X28.16 Y-71.7 Z2.217 E67.854
G1 X29 Y-71.8 Z2.222 E67.898
G1 X29.84 Y-71.7 Z2.229 E67.942
G1 X30.65 Y-71.42 Z2.236 E67.986
G1 X31.37 Y-70.96 Z2.244 E68.03
G1 X31.97 Y-70.37 Z2.252 E68.074
G1 X32.42 Y-69.65 Z2.26 E68.118
G1 X32.7 Y-68.84 Z2.266 E68.162
G1 X32.8 Y-68 Z2.272 E68.205
G1 X32.7 Y-67.15 Z2.276 E68.249
G1 X32.42 Y-66.35 Z2.278 E68.293
G1 X31.97 Y-65.63 Z2.279 E68.337
G1 X31.37 Y-65.03 Z2.278 E68.381
G1 X30.65 Y-64.57 Z2.276 E68.425
G1 X29.84 Y-64.29 Z2.271 E68.469
G1 X28.8 Y-64.18 Z2.264 E68.523
G1 X28.8 Y64.18 Z2.418 E75.152
G1 X29.84 Y64.3 Z2.426 E75.206
G1 X30.65 Y64.58 Z2.431 E75.25
G1 X31.37 Y65.03 Z2.436 E75.295
G1 X31.97 Y65.63 Z2.438 E75.338
G1 X32.42 Y66.35 Z2.439 E75.382
G1 X32.7 Y67.15 Z2.439 E75.426
G1 X32.8 Y68 Z2.436 E75.47
G1 X32.7 Y68.85 Z2.432 E75.514
G1 X32.42 Y69.65 Z2.427 E75.558
G1 X31.97 Y70.37 Z2.421 E75.602
G1 X31.37 Y70.97 Z2.414 E75.646
G1 X30.65 Y71.42 Z2.407 E75.69
G1 X29.84 Y71.7 Z2.4 E75.734
G1 X29 Y71.8 Z2.393 E75.777
G1 X28.16 Y71.7 Z2.386 E75.821
G1 X27.35 Y71.42 Z2.381 E75.865
G1 X26.63 Y70.97 Z2.377 E75.909
G1 X26.03 Y70.37 Z2.374 E75.953
G1 X25.58 Y69.65 Z2.373 E75.997
G1 X25.3 Y68.85 Z2.374 E76.041
G1 X25.18 Y67.8 Z2.377 E76.095
G1 X15.2 Y67.8 Z2.298 E76.61
G1 X15.2 Y17.8 Z2.429 E79.192
G1 X-10.2 Y17.8 Z2.338 E80.504
G1 X-10.2 Y67.8 Z2.159 E83.086
G1 X-25.18 Y67.8 Z2.132 E83.86
G1 X-25.51 Y67.4 Z2.133 F13500
; TYPE:WALL-INNER
G1 X-25.51 Y67.36 Z2.133 E83.862 F900
G1 X-25.78 Y66.51 Z2.136 E83.908
G1 X-26.26 Y65.76 Z2.138 E83.954
G1 X-26.9 Y65.14 Z2.139 E84
G1 X-27.68 Y64.71 Z2.139 E84.045
G1 X-28.4 Y64.53 Z2.138 E84.084
G1 X-28.4 Y-64.53 Z2.016 E90.749
G1 X-28.14 Y-64.56 Z2.016 E90.762
G1 X-27.32 Y-64.88 Z2.015 E90.808
G1 X-26.59 Y-65.4 Z2.013 E90.854
G1 X-26.02 Y-66.08 Z2.01 E90.9
G1 X-25.64 Y-66.88 Z2.006 E90.945
G1 X-25.53 Y-67.4 Z2.003 E90.973
G1 X25.53 Y-67.4 Z2.222 E93.61
G1 X25.63 Y-66.9 Z2.225 E93.636
G1 X26 Y-66.09 Z2.233 E93.682
G1 X26.57 Y-65.41 Z2.241 E93.728
G1 X27.29 Y-64.88 Z2.249 E93.774
G1 X28.12 Y-64.56 Z2.257 E93.82
G1 X28.4 Y-64.52 Z2.259 E93.835
G1 X28.4 Y64.53 Z2.414 E100.5
G1 X27.71 Y64.7 Z2.408 E100.537
G1 X26.93 Y65.13 Z2.4 E100.582
G1 X26.28 Y65.73 Z2.393 E100.628
G1 X25.8 Y66.49 Z2.386 E100.674
G1 X25.52 Y67.33 Z2.381 E100.72
G1 X25.52 Y67.4 Z2.381 E100.724
G1 X15.6 Y67.4 Z2.303 E101.236
G1 X15.6 Y17.4 Z2.427 E103.818
G1 X-10.6 Y17.4 Z2.335 E105.171
G1 X-10.6 Y67.4 Z2.16 E107.753
G1 X-25.51 Y67.4 Z2.133 E108.524
G1 X-25.21 Y67 Z2.135 F13500
G1 X-25.42 Y66.34 Z2.137 E108.559 F900
G1 X-25.94 Y65.5 Z2.139 E108.61
G1 X-26.66 Y64.82 Z2.14 E108.661
G1 X-27.53 Y64.34 Z2.14 E108.713
G1 X-28 Y64.22 Z2.14 E108.737
G1 X-28 Y-64.19 Z2.018 E115.369
G1 X-27.12 Y-64.53 Z2.017 E115.417
G1 X-26.32 Y-65.1 Z2.015 E115.468
G1 X-25.68 Y-65.86 Z2.012 E115.52
G1 X-25.25 Y-66.75 Z2.007 E115.571
G1 X-25.21 Y-67 Z2.006 E115.583
G1 X25.2 Y-67 Z2.222 E118.187
G1 X25.24 Y-66.77 Z2.223 E118.198
G1 X25.66 Y-65.88 Z2.232 E118.25
G1 X26.29 Y-65.11 Z2.241 E118.301
G1 X27.09 Y-64.53 Z2.25 E118.352
G1 X28 Y-64.17 Z2.258 E118.402
G1 X28 Y64.22 Z2.412 E125.033
G1 X27.56 Y64.33 Z2.408 E125.056
G1 X26.69 Y64.8 Z2.399 E125.107
G1 X25.97 Y65.48 Z2.391 E125.158
G1 X25.43 Y66.31 Z2.384 E125.209
G1 X25.21 Y67 Z2.38 E125.247
G1 X16 Y67 Z2.307 E125.722
G1 X16 Y17 Z2.425 E128.305
G1 X-11 Y17 Z2.332 E129.699
G1 X-11 Y67 Z2.161 E132.281
G1 X-25.21 Y67 Z2.135 E133.015
G1 X-25.83 Y66.64 Z2.135 F13500
G1 X-26.26 Y65.76 Z2.138
G1 X-26.9 Y65.15 Z2.139
G1 X-27.68 Y64.71 Z2.139
G1 X-28.54 Y64.49 Z2.138
G1 X-29.38 Y64.58 Z2.136
G1 X-29.38 Y64.59 Z2.136
G1 X-29.38 Y64.59 Z2.136
G1 X-29.38 Y64.89 Z2.135
; TYPE:WALL-OUTER
G1 X-30.14 Y65.08 Z2.133 E133.056 F900
G1 X-30.83 Y65.45 Z2.13 E133.096
G1 X-31.41 Y65.99 Z2.127 E133.137
G1 X-31.83 Y66.66 Z2.124 E133.178
G1 X-32.08 Y67.4 Z2.121 E133.218
G1 X-32.13 Y68.19 Z2.118 E133.259
G1 X-31.98 Y68.96 Z2.116 E133.3
G1 X-31.65 Y69.68 Z2.114 E133.34
G1 X-31.15 Y70.29 Z2.112 E133.381
G1 X-30.51 Y70.75 Z2.112 E133.422
G1 X-29.78 Y71.04 Z2.112 E133.463
G1 X-29 Y71.14 Z2.113 E133.503
G1 X-28.24 Y71.04 Z2.115 E133.543
G1 X-27.51 Y70.76 Z2.117 E133.583
G1 X-26.86 Y70.3 Z2.12 E133.624
G1 X-26.36 Y69.7 Z2.123 E133.665
G1 X-26.02 Y68.99 Z2.126 E133.705
G1 X-25.87 Y68.21 Z2.129 E133.746
G1 X-25.91 Y67.43 Z2.132 E133.786
G1 X-26.15 Y66.68 Z2.134 E133.827
G1 X-26.57 Y66.01 Z2.136 E133.868
G1 X-27.14 Y65.47 Z2.137 E133.908
G1 X-27.83 Y65.09 Z2.137 E133.949
G1 X-28.59 Y64.89 Z2.136 E133.989
G1 X-29.38 Y64.89 Z2.135 E134.03
G1  E131.03 F6600
G1 X-29.38 Y64.89 Z5.135
G1 X-29.38 Y64.59 Z5.136 F13500
G1 X-29.21 Y64.59 Z5.136
G1 X-28.81 Y64.59 Z5.137
G1 X-10.6 Y64.59 Z5.17
G1 X-10.54 Y17.46 Z5.336
G1 X15.54 Y17.46 Z5.427
G1 X15.6 Y64.59 Z5.313
G1 X28.62 Y64.59 Z5.415
G1 X28.62 Y64.59 Z5.415
G1 X28.62 Y64.89 Z5.414
G1 X28.62 Y64.89 Z2.414
G1  E134.03 F6600
G1 X27.85 Y65.08 Z2.408 E134.071 F900
G1 X27.16 Y65.45 Z2.401 E134.111
G1 X26.59 Y65.99 Z2.394 E134.152
G1 X26.16 Y66.66 Z2.389 E134.193
G1 X25.92 Y67.4 Z2.384 E134.233
G1 X25.87 Y68.19 Z2.381 E134.274
G1 X26.01 Y68.96 Z2.379 E134.315
G1 X26.35 Y69.68 Z2.379 E134.355
G1 X26.85 Y70.29 Z2.381 E134.396
G1 X27.49 Y70.75 Z2.384 E134.437
G1 X28.22 Y71.04 Z2.389 E134.477
G1 X29 Y71.14 Z2.395 E134.518
G1 X29.76 Y71.04 Z2.401 E134.558
G1 X30.49 Y70.76 Z2.408 E134.598
G1 X31.13 Y70.3 Z2.415 E134.639
G1 X31.64 Y69.7 Z2.421 E134.679
G1 X31.98 Y68.99 Z2.426 E134.72
G1 X32.13 Y68.21 Z2.43 E134.761
G1 X32.09 Y67.43 Z2.433 E134.801
G1 X31.85 Y66.68 Z2.433 E134.842
G1 X31.43 Y66.01 Z2.433 E134.882
G1 X30.86 Y65.47 Z2.43 E134.923
G1 X30.17 Y65.09 Z2.426 E134.964
G1 X29.41 Y64.89 Z2.421 E135.004
G1 X28.62 Y64.89 Z2.414 E135.045
G1  E132.045 F6600
G1 X28.62 Y64.89 Z5.414
G1 X28.62 Y64.59 Z5.415 F13500
G1 X28.62 Y64.56 Z5.416
G1 X28.45 Y64.49 Z5.414
G1 X28.45 Y-64.49 Z5.26
G1 X28.61 Y-64.56 Z5.261
G1 X28.61 Y-64.49 Z5.261
G1 X28.12 Y-64.56 Z5.257
G1 X27.29 Y-64.89 Z5.249
G1 X26.57 Y-65.41 Z5.241
G1 X26 Y-66.09 Z5.233
G1 X25.63 Y-66.9 Z5.225
G1 X25.46 Y-67.77 Z5.219
G1 X25.52 Y-68.66 Z5.215
G1 X25.8 Y-69.5 Z5.212
G1 X26.27 Y-70.25 Z5.211
G1 X26.93 Y-70.86 Z5.212
G1 X27.71 Y-71.28 Z5.216
G1 X28.57 Y-71.5 Z5.221
G1 X28.61 Y-71.5 Z5.221
G1 X28.62 Y-71.4 Z5.222
G1 X28.62 Y-71.4 Z5.222
G1 X28.61 Y-71.1 Z5.223
G1 X28.61 Y-71.1 Z2.223
G1  E135.045 F6600
G1 X27.85 Y-70.91 Z2.219 E135.086 F900
G1 X27.16 Y-70.53 Z2.216 E135.126
G1 X26.58 Y-70 Z2.215 E135.167
G1 X26.16 Y-69.33 Z2.215 E135.208
G1 X25.91 Y-68.58 Z2.218 E135.248
G1 X25.86 Y-67.79 Z2.222 E135.289
G1 X26.01 Y-67.02 Z2.228 E135.33
G1 X26.34 Y-66.31 Z2.234 E135.37
G1 X26.85 Y-65.7 Z2.241 E135.411
G1 X27.48 Y-65.24 Z2.249 E135.452
G1 X28.22 Y-64.95 Z2.256 E135.492
G1 X29 Y-64.85 Z2.262 E135.533
G1 X29.75 Y-64.94 Z2.267 E135.573
G1 X30.49 Y-65.23 Z2.271 E135.613
G1 X31.13 Y-65.68 Z2.273 E135.654
G1 X31.64 Y-66.29 Z2.273 E135.694
G1 X31.97 Y-67 Z2.271 E135.735
G1 X32.13 Y-67.77 Z2.268 E135.776
G1 X32.08 Y-68.56 Z2.263 E135.816
G1 X31.84 Y-69.31 Z2.257 E135.857
G1 X31.43 Y-69.97 Z2.25 E135.897
G1 X30.85 Y-70.52 Z2.243 E135.938
G1 X30.17 Y-70.9 Z2.236 E135.979
G1 X29.4 Y-71.1 Z2.229 E136.019
G1 X28.61 Y-71.1 Z2.223 E136.06
G1  E133.06 F6600
G1 X28.61 Y-71.1 Z5.223
G1 X28.62 Y-71.4 Z5.222 F13500
G1 X28.1 Y-71.4 Z5.218
G1 X27.52 Y-71.06 Z5.216
G1 X26.88 Y-70.65 Z5.213
G1 X26.34 Y-70.12 Z5.212
G1 X25.94 Y-69.47 Z5.213
G1 X25.69 Y-68.75 Z5.215
G1 X25.49 Y-67.45 Z5.221
G1 X-25.49 Y-67.45 Z5.003
G1 X-25.68 Y-68.75 Z4.995
G1 X-25.94 Y-69.47 Z4.991
G1 X-26.34 Y-70.12 Z4.987
G1 X-26.88 Y-70.65 Z4.983
G1 X-27.52 Y-71.06 Z4.98
G1 X-28.13 Y-71.41 Z4.977
G1 X-28.81 Y-71.41 Z4.976
G1 X-29.21 Y-71.41 Z4.976
G1 X-29.38 Y-71.41 Z4.975
G1 X-29.38 Y-71.41 Z4.975
G1 X-29.38 Y-71.11 Z4.977
G1 X-29.38 Y-71.11 Z1.977
G1  E136.06 F6600
G1 X-30.14 Y-70.92 Z1.977 E136.101 F900
G1 X-30.83 Y-70.54 Z1.978 E136.141
G1 X-31.41 Y-70 Z1.981 E136.182
G1 X-31.83 Y-69.34 Z1.984 E136.223
G1 X-32.08 Y-68.59 Z1.988 E136.263
G1 X-32.13 Y-67.81 Z1.993 E136.304
G1 X-31.98 Y-67.03 Z1.997 E136.345
G1 X-31.65 Y-66.32 Z2.002 E136.385
G1 X-31.15 Y-65.71 Z2.006 E136.426
G1 X-30.51 Y-65.25 Z2.009 E136.467
G1 X-29.78 Y-64.96 Z2.012 E136.507
G1 X-29 Y-64.86 Z2.013 E136.548
G1 X-28.24 Y-64.95 Z2.014 E136.587
G1 X-27.51 Y-65.24 Z2.013 E136.628
G1 X-26.86 Y-65.69 Z2.011 E136.669
G1 X-26.36 Y-66.3 Z2.008 E136.709
G1 X-26.02 Y-67.01 Z2.005 E136.75
G1 X-25.87 Y-67.78 Z2 E136.791
G1 X-25.91 Y-68.57 Z1.996 E136.831
G1 X-26.15 Y-69.32 Z1.991 E136.872
G1 X-26.57 Y-69.99 Z1.987 E136.912
G1 X-27.14 Y-70.53 Z1.983 E136.953
G1 X-27.83 Y-70.91 Z1.98 E136.994
G1 X-28.59 Y-71.11 Z1.978 E137.034
G1 X-29.38 Y-71.11 Z1.977 E137.075
G1 X-29.38 Y-71.41 Z1.975 F13500
G1 X-29.42 Y-71.46 Z1.975
G1 X-28.54 Y-71.51 Z1.976
G1 X-27.68 Y-71.28 Z1.978
G1 X-26.9 Y-70.85 Z1.982
G1 X-26.26 Y-70.24 Z1.986
G1 X-25.79 Y-69.49 Z1.991
G1 X-25.52 Y-68.64 Z1.996
G1 X-25.47 Y-67.75 Z2.001
G1 X-25.6 Y-67.25 Z2.004
G1 X-25.07 Y-66.67 Z2.008
G1 X-25.07 Y-66.67 Z2.008
; TYPE:BOTTOM-FILL
G1 X27.8 Y-36.14 Z2.404 E140.228 F900
G1 X27.8 Y-35.68 Z2.407 F13500
G1 X-25.25 Y-66.31 Z2.01 E143.391 F900
G1 X-25.42 Y-65.94 Z2.012 F13500
G1 X27.8 Y-35.22 Z2.409 E146.565 F900
G1 X27.8 Y-34.76 Z2.411 F13500
G1 X-25.63 Y-65.61 Z2.013 E149.751 F900
G1 X-25.89 Y-65.29 Z2.015 F13500
G1 X27.8 Y-34.29 Z2.413 E152.953 F900
G1 X27.8 Y-33.83 Z2.415 F13500
G1 X-26.15 Y-64.98 Z2.016 E156.171 F900
G1 X-26.5 Y-64.72 Z2.017 F13500
G1 X27.8 Y-33.37 Z2.417 E159.409 F900
G1 X27.8 Y-32.91 Z2.419 F13500
G1 X-26.86 Y-64.47 Z2.018 E162.669 F900
G1 X-27.28 Y-64.25 Z2.019 F13500
G1 X27.8 Y-32.45 Z2.422 E165.954 F900
G1 X27.8 Y-31.99 Z2.424 F13500
G1 X-27.76 Y-64.06 Z2.019 E169.267 F900
G1 X-27.8 Y-63.62 Z2.022 F13500
G1 X27.8 Y-31.52 Z2.426 E172.583 F900
G1 X27.8 Y-31.06 Z2.428 F13500
G1 X-27.8 Y-63.16 Z2.024 E175.898 F900
G1 X-27.8 Y-62.7 Z2.027 F13500
G1 X27.8 Y-30.6 Z2.43 E179.214 F900
G1 X27.8 Y-30.14 Z2.432 F13500
G1 X-27.8 Y-62.24 Z2.03 E182.529 F900
G1 X-27.8 Y-61.77 Z2.032 F13500
G1 X27.8 Y-29.67 Z2.435 E185.845 F900
G1 X27.8 Y-29.21 Z2.437 F13500
G1 X-27.8 Y-61.31 Z2.035 E189.16 F900
G1 X-27.8 Y-60.85 Z2.038 F13500
G1 X27.8 Y-28.75 Z2.439 E192.476 F900
G1 X27.8 Y-28.29 Z2.441 F13500
G1 X-27.8 Y-60.39 Z2.04 E195.791 F900
G1 X-27.8 Y-59.93 Z2.043 F13500
G1 X27.8 Y-27.83 Z2.443 E199.106 F900
G1 X27.8 Y-27.37 Z2.445 F13500
G1 X-27.8 Y-59.47 Z2.046 E202.422 F900
G1 X-27.8 Y-59 Z2.048 F13500
G1 X27.8 Y-26.9 Z2.447 E205.737 F900
G1 X27.8 Y-26.44 Z2.45 F13500
G1 X-27.8 Y-58.54 Z2.051 E209.053 F900
G1 X-27.8 Y-58.08 Z2.053 F13500
G1 X27.8 Y-25.98 Z2.452 E212.368 F900
G1 X27.8 Y-25.52 Z2.454 F13500
G1 X-27.8 Y-57.62 Z2.056 E215.684 F900
G1 X-27.8 Y-57.16 Z2.059 F13500
G1 X27.8 Y-25.06 Z2.456 E218.999 F900
G1 X27.8 Y-24.59 Z2.458 F13500
G1 X-27.8 Y-56.69 Z2.061 E222.315 F900
G1 X-27.8 Y-56.23 Z2.064 F13500
G1 X27.8 Y-24.13 Z2.46 E225.63 F900
G1 X27.8 Y-23.67 Z2.462 F13500
G1 X-27.8 Y-55.77 Z2.067 E228.946 F900
G1 X-27.8 Y-55.31 Z2.069 F13500
G1 X27.8 Y-23.21 Z2.465 E232.261 F900
G1 X27.8 Y-22.75 Z2.467 F13500
G1 X-27.8 Y-54.85 Z2.072 E235.577 F900
G1 X-27.8 Y-54.38 Z2.075 F13500
G1 X27.8 Y-22.28 Z2.469 E238.892 F900
G1 X27.8 Y-21.82 Z2.471 F13500
G1 X-27.8 Y-53.92 Z2.077 E242.208 F900
G1 X-27.8 Y-53.46 Z2.08 F13500
G1 X27.8 Y-21.36 Z2.473 E245.523 F900
G1 X27.8 Y-20.9 Z2.475 F13500
G1 X-27.8 Y-53 Z2.083 E248.839 F900
G1 X-27.8 Y-52.54 Z2.085 F13500
G1 X27.8 Y-20.44 Z2.478 E252.154 F900
G1 X27.8 Y-19.98 Z2.48 F13500
G1 X-27.8 Y-52.07 Z2.088 E255.469 F900
G1 X-27.8 Y-51.61 Z2.09 F13500
G1 X27.8 Y-19.51 Z2.482 E258.785 F900
G1 X27.8 Y-19.05 Z2.484 F13500
G1 X-27.8 Y-51.15 Z2.093 E262.1 F900
G1 X-27.8 Y-50.69 Z2.096 F13500
G1 X27.8 Y-18.59 Z2.486 E265.416 F900
G1 X27.8 Y-18.13 Z2.488 F13500
G1 X-27.8 Y-50.23 Z2.098 E268.731 F900
G1 X-27.8 Y-49.76 Z2.101 F13500
G1 X27.8 Y-17.67 Z2.49 E272.047 F900
G1 X27.8 Y-17.2 Z2.493 F13500
G1 X-27.8 Y-49.3 Z2.104 E275.362 F900
G1 X-27.8 Y-48.84 Z2.106 F13500
G1 X27.8 Y-16.74 Z2.495 E278.678 F900
G1 X27.8 Y-16.28 Z2.497 F13500
G1 X-27.8 Y-48.38 Z2.109 E281.993 F900
G1 X-27.8 Y-47.92 Z2.111 F13500
G1 X27.8 Y-15.82 Z2.498 E285.309 F900
G1 X27.8 Y-15.36 Z2.498 F13500
G1 X-27.8 Y-47.46 Z2.113 E288.624 F900
G1 X-27.8 Y-46.99 Z2.115 F13500
G1 X27.8 Y-14.9 Z2.497 E291.94 F900
G1 X27.8 Y-14.43 Z2.497 F13500
G1 X-27.8 Y-46.53 Z2.117 E295.255 F900
G1 X-27.8 Y-46.07 Z2.119 F13500
G1 X27.8 Y-13.97 Z2.497 E298.571 F900
G1 X27.8 Y-13.51 Z2.497 F13500
G1 X-27.8 Y-45.61 Z2.121 E301.886 F900
G1 X-27.8 Y-45.15 Z2.123 F13500
G1 X27.8 Y-13.05 Z2.497 E305.202 F900
G1 X27.8 Y-12.59 Z2.497 F13500
G1 X-27.8 Y-44.68 Z2.125 E308.517 F900
G1 X-27.8 Y-44.22 Z2.127 F13500
G1 X27.8 Y-12.12 Z2.496 E311.833 F900
G1 X27.8 Y-11.66 Z2.496 F13500
G1 X-27.8 Y-43.76 Z2.129 E315.148 F900
G1 X-27.8 Y-43.3 Z2.131 F13500
G1 X27.8 Y-11.2 Z2.496 E318.464 F900
G1 X27.8 Y-10.74 Z2.496 F13500
G1 X-27.8 Y-42.84 Z2.133 E321.779 F900
G1 X-27.8 Y-42.38 Z2.135 F13500
G1 X27.8 Y-10.28 Z2.496 E325.095 F900
G1 X27.8 Y-9.81 Z2.495 F13500
G1 X-27.8 Y-41.91 Z2.137 E328.41 F900
G1 X-27.8 Y-41.45 Z2.139 F13500
G1 X27.8 Y-9.35 Z2.495 E331.726 F900
G1 X27.8 Y-8.89 Z2.495 F13500
G1 X-27.8 Y-40.99 Z2.141 E335.041 F900
G1 X-27.8 Y-40.53 Z2.144 F13500
G1 X27.8 Y-8.43 Z2.495 E338.356 F900
G1 X27.8 Y-7.97 Z2.495 F13500
G1 X-27.8 Y-40.07 Z2.146 E341.672 F900
G1 X-27.8 Y-39.6 Z2.148 F13500
G1 X27.8 Y-7.51 Z2.495 E344.987 F900
G1 X27.8 Y-7.04 Z2.494 F13500
G1 X-27.8 Y-39.14 Z2.15 E348.303 F900
G1 X-27.8 Y-38.68 Z2.152 F13500
G1 X27.8 Y-6.58 Z2.494 E351.618 F900
G1 X27.8 Y-6.12 Z2.494 F13500
G1 X-27.8 Y-38.22 Z2.154 E354.934 F900
G1 X-27.8 Y-37.76 Z2.156 F13500
G1 X27.8 Y-5.66 Z2.494 E358.249 F900
G1 X27.8 Y-5.2 Z2.494 F13500
G1 X-27.8 Y-37.29 Z2.158 E361.565 F900
G1 X-27.8 Y-36.83 Z2.16 F13500
G1 X27.8 Y-4.73 Z2.493 E364.88 F900
G1 X27.8 Y-4.27 Z2.493 F13500
G1 X-27.8 Y-36.37 Z2.162 E368.196 F900
G1 X-27.8 Y-35.91 Z2.164 F13500
G1 X27.8 Y-3.81 Z2.493 E371.511 F900
G1 X27.8 Y-3.35 Z2.493 F13500
G1 X-27.8 Y-35.45 Z2.166 E374.827 F900
G1 X-27.8 Y-34.99 Z2.168 F13500
G1 X27.8 Y-2.89 Z2.493 E378.142 F900
G1 X27.8 Y-2.42 Z2.492 F13500
G1 X-27.8 Y-34.52 Z2.17 E381.458 F900
G1 X-27.8 Y-34.06 Z2.172 F13500
G1 X27.8 Y-1.96 Z2.492 E384.773 F900
G1 X27.8 Y-1.5 Z2.492 F13500
G1 X-27.8 Y-33.6 Z2.174 E388.089 F900
G1 X-27.8 Y-33.14 Z2.176 F13500
G1 X27.8 Y-1.04 Z2.492 E391.404 F900
G1 X27.8 Y-0.58 Z2.492 F13500
G1 X-27.8 Y-32.68 Z2.178 E394.72 F900
G1 X-27.8 Y-32.21 Z2.18 F13500
G1 X27.8 Y-0.12 Z2.492 E398.035 F900
G1 X27.8 Y0.35 Z2.49 F13500
G1 X-27.8 Y-31.75 Z2.182 E401.35 F900
G1 X-27.8 Y-31.29 Z2.184 F13500
G1 X27.8 Y0.81 Z2.487 E404.666 F900
G1 X27.8 Y1.27 Z2.484 F13500
G1 X-27.8 Y-30.83 Z2.186 E407.981 F900
G1 X-27.8 Y-30.37 Z2.188 F13500
G1 X27.8 Y1.73 Z2.482 E411.297 F900
G1 X27.8 Y2.19 Z2.479 F13500
G1 X-27.8 Y-29.9 Z2.19 E414.612 F900
G1 X-27.8 Y-29.44 Z2.192 F13500
G1 X27.8 Y2.66 Z2.477 E417.928 F900
G1 X27.8 Y3.12 Z2.474 F13500
G1 X-27.8 Y-28.98 Z2.194 E421.243 F900
G1 X-27.8 Y-28.52 Z2.196 F13500
G1 X27.8 Y3.58 Z2.471 E424.559 F900
G1 X27.8 Y4.04 Z2.469 F13500
G1 X-27.8 Y-28.06 Z2.198 E427.874 F900
G1 X-27.8 Y-27.59 Z2.2 F13500
G1 X27.8 Y4.5 Z2.466 E431.19 F900
G1 X27.8 Y4.97 Z2.464 F13500
G1 X-27.8 Y-27.13 Z2.202 E434.505 F900
G1 X-27.8 Y-26.67 Z2.204 F13500
G1 X27.8 Y5.43 Z2.461 E437.82 F900
G1 X27.8 Y5.89 Z2.459 F13500
G1 X-27.8 Y-26.21 Z2.206 E441.136 F900
G1 X-27.8 Y-25.75 Z2.208 F13500
G1 X27.8 Y6.35 Z2.456 E444.451 F900
G1 X27.8 Y6.81 Z2.453 F13500
G1 X-27.8 Y-25.29 Z2.21 E447.767 F900
G1 X-27.8 Y-24.82 Z2.212 F13500
G1 X27.8 Y7.27 Z2.451 E451.082 F900
G1 X27.8 Y7.74 Z2.448 F13500
G1 X-27.8 Y-24.36 Z2.214 E454.398 F900
G1 X-27.8 Y-23.9 Z2.216 F13500
G1 X27.8 Y8.2 Z2.446 E457.713 F900
G1 X27.8 Y8.66 Z2.443 F13500
G1 X-27.8 Y-23.44 Z2.218 E461.029 F900
G1 X-27.8 Y-22.98 Z2.22 F13500
G1 X27.8 Y9.12 Z2.44 E464.344 F900
G1 X27.8 Y9.58 Z2.438 F13500
G1 X-27.8 Y-22.51 Z2.222 E467.659 F900
G1 X-27.8 Y-22.05 Z2.224 F13500
G1 X27.8 Y10.05 Z2.435 E470.975 F900
G1 X27.8 Y10.51 Z2.433 F13500
G1 X-27.8 Y-21.59 Z2.226 E474.29 F900
G1 X-27.8 Y-21.13 Z2.228 F13500
G1 X27.8 Y10.97 Z2.43 E477.606 F900
G1 X27.8 Y11.43 Z2.428 F13500
G1 X-27.8 Y-20.67 Z2.23 E480.921 F900
G1 X-27.8 Y-20.2 Z2.232 F13500
G1 X27.8 Y11.89 Z2.425 E484.237 F900
G1 X27.8 Y12.35 Z2.422 F13500
G1 X-27.8 Y-19.74 Z2.234 E487.552 F900
G1 X-27.8 Y-19.28 Z2.236 F13500
G1 X27.8 Y12.82 Z2.42 E490.868 F900
G1 X27.8 Y13.28 Z2.417 F13500
G1 X-27.8 Y-18.82 Z2.238 E494.183 F900
G1 X-27.8 Y-18.36 Z2.24 F13500
G1 X27.8 Y13.74 Z2.415 E497.499 F900
G1 X27.8 Y14.2 Z2.412 F13500
G1 X-27.8 Y-17.9 Z2.242 E500.814 F900
G1 X-27.8 Y-17.43 Z2.244 F13500
G1 X27.8 Y14.66 Z2.409 E504.129 F900
G1 X27.8 Y15.13 Z2.407 F13500
G1 X-27.8 Y-16.97 Z2.246 E507.445 F900
G1 X-27.8 Y-16.51 Z2.248 F13500
G1 X27.8 Y15.59 Z2.404 E510.76 F900
G1 X27.8 Y16.05 Z2.402 F13500
G1 X-27.8 Y-16.05 Z2.25 E514.076 F900
G1 X-27.8 Y-15.59 Z2.25 F13500
G1 X27.8 Y16.51 Z2.403 E517.391 F900
G1 X27.8 Y16.97 Z2.404 F13500
G1 X-27.8 Y-15.12 Z2.25 E520.707 F900
G1 X-27.8 Y-14.66 Z2.249 F13500
G1 X27.8 Y17.44 Z2.405 E524.022 F900
G1 X27.8 Y17.9 Z2.405 F13500
G1 X-27.8 Y-14.2 Z2.249 E527.338 F900
G1 X-27.8 Y-13.74 Z2.248 F13500
G1 X27.8 Y18.36 Z2.406 E530.653 F900
G1 X27.8 Y18.82 Z2.407 F13500
G1 X-27.8 Y-13.28 Z2.248 E533.968 F900
G1 X-27.8 Y-12.81 Z2.248 F13500
G1 X27.8 Y19.28 Z2.408 E537.284 F900
G1 X27.8 Y19.75 Z2.409 F13500
G1 X-27.8 Y-12.35 Z2.247 E540.599 F900
G1 X-27.8 Y-11.89 Z2.247 F13500
G1 X27.8 Y20.21 Z2.41 E543.915 F900
G1 X27.8 Y20.67 Z2.411 F13500
G1 X-27.8 Y-11.43 Z2.247 E547.23 F900
G1 X-27.8 Y-10.97 Z2.246 F13500
G1 X27.8 Y21.13 Z2.412 E550.546 F900
G1 X27.8 Y21.59 Z2.413 F13500
G1 X-27.8 Y-10.51 Z2.246 E553.861 F900
G1 X-27.8 Y-10.04 Z2.245 F13500
G1 X27.8 Y22.05 Z2.414 E557.177 F900
G1 X27.8 Y22.52 Z2.415 F13500
G1 X-27.8 Y-9.58 Z2.245 E560.492 F900
G1 X-27.8 Y-9.12 Z2.245 F13500
G1 X27.8 Y22.98 Z2.416 E563.808 F900
G1 X27.8 Y23.44 Z2.417 F13500
G1 X-27.8 Y-8.66 Z2.244 E567.123 F900
G1 X-27.8 Y-8.2 Z2.244 F13500
G1 X15.5 Y16.8 Z2.426 E569.705 F900
G1 X14.7 Y16.8 Z2.427 F13500
G1 X-27.8 Y-7.73 Z2.244 E572.239 F900
G1 X-27.8 Y-7.27 Z2.243 F13500
G1 X13.9 Y16.8 Z2.429 E574.725 F900
G1 X13.1 Y16.8 Z2.43 F13500
G1 X-27.8 Y-6.81 Z2.243 E577.164 F900
G1 X-27.8 Y-6.35 Z2.242 F13500
G1 X12.3 Y16.8 Z2.432 E579.555 F900
G1 X11.5 Y16.8 Z2.433 F13500
G1 X-27.8 Y-5.89 Z2.242 E581.898 F900
G1 X-27.8 Y-5.43 Z2.242 F13500
G1 X10.7 Y16.8 Z2.435 E584.193 F900
G1 X9.9 Y16.8 Z2.436 F13500
G1 X-27.8 Y-4.96 Z2.241 E586.441 F900
G1 X-27.8 Y-4.5 Z2.241 F13500
G1 X9.1 Y16.8 Z2.432 E588.641 F900
G1 X8.3 Y16.8 Z2.426 F13500
G1 X-27.8 Y-4.04 Z2.241 E590.794 F900
G1 X-27.8 Y-3.58 Z2.24 F13500
G1 X7.5 Y16.8 Z2.419 E592.899 F900
G1 X6.7 Y16.8 Z2.413 F13500
G1 X-27.8 Y-3.12 Z2.24 E594.956 F900
G1 X-27.8 Y-2.65 Z2.239 F13500
G1 X5.9 Y16.8 Z2.407 E596.965 F900
G1 X5.1 Y16.8 Z2.4 F13500
G1 X-27.8 Y-2.19 Z2.239 E598.926 F900
G1 X-27.8 Y-1.73 Z2.239 F13500
G1 X4.3 Y16.8 Z2.394 E600.84 F900
G1 X3.5 Y16.8 Z2.388 F13500
G1 X-27.8 Y-1.27 Z2.238 E602.706 F900
G1 X-27.8 Y-0.81 Z2.238 F13500
G1 X2.7 Y16.8 Z2.381 E604.525 F900
G1 X1.9 Y16.8 Z2.375 F13500
G1 X-27.8 Y-0.34 Z2.238 E606.296 F900
G1 X-27.8 Y0.12 Z2.237 F13500
G1 X1.1 Y16.8 Z2.369 E608.019 F900
G1 X0.3 Y16.8 Z2.362 F13500
G1 X-27.8 Y0.58 Z2.236 E609.694 F900
G1 X-27.8 Y1.04 Z2.234 F13500
G1 X-0.5 Y16.8 Z2.359 E611.322 F900
G1 X-1.3 Y16.8 Z2.358 F13500
G1 X-27.8 Y1.5 Z2.233 E612.902 F900
G1 X-27.8 Y1.96 Z2.232 F13500
G1 X-2.1 Y16.8 Z2.356 E614.434 F900
G1 X-2.9 Y16.8 Z2.355 F13500
G1 X-27.8 Y2.43 Z2.23 E615.918 F900
G1 X-27.8 Y2.89 Z2.229 F13500
G1 X-3.7 Y16.8 Z2.353 E617.355 F900
G1 X-4.5 Y16.8 Z2.352 F13500
G1 X-27.8 Y3.35 Z2.228 E618.745 F900
G1 X-27.8 Y3.81 Z2.226 F13500
G1 X-5.3 Y16.8 Z2.35 E620.086 F900
G1 X-6.1 Y16.8 Z2.349 F13500
G1 X-27.8 Y4.27 Z2.225 E621.38 F900
G1 X-27.8 Y4.74 Z2.224 F13500
G1 X-6.9 Y16.8 Z2.347 E622.626 F900
G1 X-7.7 Y16.8 Z2.346 F13500
G1 X-27.8 Y5.2 Z2.222 E623.824 F900
G1 X-27.8 Y5.66 Z2.221 F13500
G1 X-8.5 Y16.8 Z2.345 E624.975 F900
G1 X-9.3 Y16.8 Z2.343 F13500
G1 X-27.8 Y6.12 Z2.22 E626.078 F900
G1 X-27.8 Y6.58 Z2.218 F13500
G1 X-10.1 Y16.8 Z2.339 E627.133 F900
G1 X-10.9 Y16.8 Z2.332 F13500
G1 X-27.8 Y7.05 Z2.217 E628.14 F900
G1 X-27.8 Y7.51 Z2.216 F13500
G1 X-11.19 Y17.09 Z2.33 E629.13 F900
G1 X-11.19 Y17.55 Z2.33 F13500
G1 X-27.8 Y7.97 Z2.214 E630.12 F900
G1 X-27.8 Y8.43 Z2.213 F13500
G1 X-11.19 Y18.01 Z2.33 E631.11 F900
G1 X-11.19 Y18.48 Z2.33 F13500
G1 X-27.8 Y8.89 Z2.212 E632.1 F900
G1 X-27.8 Y9.35 Z2.21 F13500
G1 X-11.19 Y18.94 Z2.33 E633.09 F900
G1 X-11.19 Y19.4 Z2.33 F13500
G1 X-27.8 Y9.82 Z2.209 E634.08 F900
G1 X-27.8 Y10.28 Z2.207 F13500
G1 X-11.19 Y19.86 Z2.329 E635.07 F900
G1 X-11.19 Y20.33 Z2.327 F13500
G1 X-27.8 Y10.74 Z2.206 E636.06 F900
G1 X-27.8 Y11.2 Z2.205 F13500
G1 X-11.19 Y20.79 Z2.325 E637.05 F900
G1 X-11.2 Y21.25 Z2.324 F13500
G1 X-27.8 Y11.66 Z2.203 E638.04 F900
G1 X-27.8 Y12.13 Z2.202 F13500
G1 X-11.2 Y21.71 Z2.322 E639.03 F900
G1 X-11.2 Y22.17 Z2.321 F13500
G1 X-27.8 Y12.59 Z2.201 E640.02 F900
G1 X-27.8 Y13.05 Z2.199 F13500
G1 X-11.2 Y22.63 Z2.319 E641.01 F900
G1 X-11.2 Y23.1 Z2.317 F13500
G1 X-27.8 Y13.51 Z2.198 E642 F900
G1 X-27.8 Y13.97 Z2.197 F13500
G1 X-11.2 Y23.56 Z2.316 E642.99 F900
G1 X-11.2 Y24.02 Z2.314 F13500
G1 X-27.8 Y14.44 Z2.195 E643.98 F900
G1 X-27.8 Y14.9 Z2.194 F13500
G1 X-11.19 Y24.48 Z2.312 E644.97 F900
G1 X-11.19 Y24.94 Z2.311 F13500
G1 X-27.8 Y15.36 Z2.193 E645.96 F900
G1 X-27.8 Y15.82 Z2.191 F13500
G1 X-11.19 Y25.41 Z2.309 E646.95 F900
G1 X-11.19 Y25.87 Z2.307 F13500
G1 X-27.8 Y16.28 Z2.191 E647.94 F900
G1 X-27.8 Y16.75 Z2.191 F13500
G1 X-11.19 Y26.33 Z2.306 E648.93 F900
G1 X-11.19 Y26.79 Z2.304 F13500
G1 X-27.8 Y17.21 Z2.191 E649.92 F900
G1 X-27.8 Y17.67 Z2.191 F13500
G1 X-11.19 Y27.25 Z2.302 E650.91 F900
G1 X-11.19 Y27.72 Z2.301 F13500
G1 X-27.8 Y18.13 Z2.191 E651.9 F900
G1 X-27.8 Y18.59 Z2.191 F13500
G1 X-11.2 Y28.18 Z2.299 E652.89 F900
G1 X-11.2 Y28.64 Z2.297 F13500
G1 X-27.8 Y19.05 Z2.191 E653.88 F900
G1 X-27.8 Y19.52 Z2.191 F13500
G1 X-11.2 Y29.1 Z2.296 E654.87 F900
G1 X-11.2 Y29.56 Z2.294 F13500
G1 X-27.8 Y19.98 Z2.192 E655.86 F900
G1 X-27.8 Y20.44 Z2.192 F13500
G1 X-11.2 Y30.02 Z2.292 E656.85 F900
G1 X-11.2 Y30.49 Z2.291 F13500
G1 X-27.8 Y20.9 Z2.192 E657.84 F900
G1 X-27.8 Y21.36 Z2.192 F13500
G1 X-11.2 Y30.95 Z2.289 E658.829 F900
G1 X-11.2 Y31.41 Z2.288 F13500
G1 X-27.8 Y21.83 Z2.192 E659.819 F900
G1 X-27.8 Y22.29 Z2.192 F13500
G1 X-11.2 Y31.87 Z2.286 E660.809 F900
G1 X-11.19 Y32.33 Z2.284 F13500
G1 X-27.8 Y22.75 Z2.192 E661.799 F900
G1 X-27.8 Y23.21 Z2.192 F13500
G1 X-11.19 Y32.79 Z2.283 E662.789 F900
G1 X-11.19 Y33.26 Z2.281 F13500
G1 X-27.8 Y23.67 Z2.192 E663.779 F900
G1 X-27.8 Y24.14 Z2.192 F13500
G1 X-11.19 Y33.72 Z2.279 E664.769 F900
G1 X-11.19 Y34.18 Z2.278 F13500
G1 X-27.8 Y24.6 Z2.193 E665.759 F900
G1 X-27.8 Y25.06 Z2.193 F13500
G1 X-11.2 Y34.64 Z2.276 E666.749 F900
G1 X-11.2 Y35.1 Z2.274 F13500
G1 X-27.8 Y25.52 Z2.193 E667.739 F900
G1 X-27.8 Y25.98 Z2.193 F13500
G1 X-11.2 Y35.57 Z2.273 E668.729 F900
G1 X-11.2 Y36.03 Z2.271 F13500
G1 X-27.8 Y26.44 Z2.193 E669.719 F900
G1 X-27.8 Y26.91 Z2.193 F13500
G1 X-11.2 Y36.49 Z2.269 E670.709 F900
G1 X-11.2 Y36.95 Z2.268 F13500
G1 X-27.8 Y27.37 Z2.193 E671.699 F900
G1 X-27.8 Y27.83 Z2.193 F13500
G1 X-11.2 Y37.41 Z2.266 E672.689 F900
G1 X-11.2 Y37.88 Z2.264 F13500
G1 X-27.8 Y28.29 Z2.193 E673.679 F900
G1 X-27.8 Y28.75 Z2.193 F13500
G1 X-11.2 Y38.34 Z2.263 E674.669 F900
G1 X-11.2 Y38.8 Z2.261 F13500
G1 X-27.8 Y29.22 Z2.194 E675.659 F900
G1 X-27.8 Y29.68 Z2.194 F13500
G1 X-11.2 Y39.26 Z2.259 E676.649 F900
G1 X-11.19 Y39.72 Z2.258 F13500
G1 X-27.8 Y30.14 Z2.194 E677.639 F900
G1 X-27.8 Y30.6 Z2.194 F13500
G1 X-11.19 Y40.19 Z2.256 E678.629 F900
G1 X-11.19 Y40.65 Z2.255 F13500
G1 X-27.8 Y31.06 Z2.194 E679.618 F900
G1 X-27.8 Y31.52 Z2.194 F13500
G1 X-11.19 Y41.11 Z2.253 E680.608 F900
G1 X-11.2 Y41.57 Z2.251 F13500
G1 X-27.8 Y31.99 Z2.194 E681.598 F900
G1 X-27.8 Y32.45 Z2.194 F13500
G1 X-11.2 Y42.03 Z2.25 E682.588 F900
G1 X-11.2 Y42.49 Z2.248 F13500
G1 X-27.8 Y32.91 Z2.194 E683.578 F900
G1 X-27.8 Y33.37 Z2.194 F13500
G1 X-11.2 Y42.96 Z2.246 E684.568 F900
G1 X-11.2 Y43.42 Z2.245 F13500
G1 X-27.8 Y33.83 Z2.195 E685.558 F900
G1 X-27.8 Y34.3 Z2.195 F13500
G1 X-11.2 Y43.88 Z2.243 E686.548 F900
G1 X-11.2 Y44.34 Z2.241 F13500
G1 X-27.8 Y34.76 Z2.195 E687.538 F900
G1 X-27.8 Y35.22 Z2.195 F13500
G1 X-11.2 Y44.8 Z2.24 E688.528 F900
G1 X-11.2 Y45.27 Z2.238 F13500
G1 X-27.8 Y35.68 Z2.195 E689.518 F900
G1 X-27.8 Y36.14 Z2.195 F13500
G1 X-11.2 Y45.73 Z2.236 E690.508 F900
G1 X-11.2 Y46.19 Z2.235 F13500
G1 X-27.8 Y36.6 Z2.195 E691.498 F900
G1 X-27.8 Y37.07 Z2.195 F13500
G1 X-11.2 Y46.65 Z2.233 E692.488 F900
G1 X-11.2 Y47.11 Z2.231 F13500
G1 X-27.8 Y37.53 Z2.195 E693.478 F900
G1 X-27.8 Y37.99 Z2.195 F13500
G1 X-11.19 Y47.58 Z2.23 E694.468 F900
G1 X-11.19 Y48.04 Z2.228 F13500
G1 X-27.8 Y38.45 Z2.196 E695.458 F900
G1 X-27.8 Y38.92 Z2.196 F13500
G1 X-11.2 Y48.5 Z2.226 E696.448 F900
G1 X-11.2 Y48.96 Z2.225 F13500
G1 X-27.8 Y39.38 Z2.196 E697.437 F900
G1 X-27.8 Y39.84 Z2.196 F13500
G1 X-11.2 Y49.42 Z2.223 E698.427 F900
G1 X-11.2 Y49.88 Z2.222 F13500
G1 X-27.8 Y40.3 Z2.196 E699.417 F900
G1 X-27.8 Y40.76 Z2.196 F13500
G1 X-11.2 Y50.35 Z2.22 E700.407 F900
G1 X-11.2 Y50.81 Z2.218 F13500
G1 X-27.8 Y41.22 Z2.196 E701.397 F900
G1 X-27.8 Y41.69 Z2.196 F13500
G1 X-11.2 Y51.27 Z2.217 E702.387 F900
G1 X-11.2 Y51.73 Z2.215 F13500
G1 X-27.8 Y42.15 Z2.196 E703.377 F900
G1 X-27.8 Y42.61 Z2.196 F13500
G1 X-11.2 Y52.19 Z2.213 E704.367 F900
G1 X-11.2 Y52.66 Z2.212 F13500
G1 X-27.8 Y43.07 Z2.197 E705.357 F900
G1 X-27.8 Y43.53 Z2.197 F13500
G1 X-11.2 Y53.12 Z2.21 E706.347 F900
G1 X-11.2 Y53.58 Z2.208 F13500
G1 X-27.8 Y43.99 Z2.197 E707.337 F900
G1 X-27.8 Y44.46 Z2.197 F13500
G1 X-11.2 Y54.04 Z2.207 E708.327 F900
G1 X-11.2 Y54.5 Z2.205 F13500
G1 X-27.8 Y44.92 Z2.197 E709.317 F900
G1 X-27.8 Y45.38 Z2.197 F13500
G1 X-11.2 Y54.97 Z2.203 E710.307 F900
G1 X-11.2 Y55.43 Z2.202 F13500
G1 X-27.8 Y45.84 Z2.197 E711.297 F900
G1 X-27.8 Y46.31 Z2.197 F13500
G1 X-11.2 Y55.89 Z2.2 E712.287 F900
G1 X-11.2 Y56.35 Z2.198 F13500
G1 X-27.8 Y46.77 Z2.197 E713.277 F900
G1 X-27.8 Y47.23 Z2.197 F13500
G1 X-11.2 Y56.81 Z2.197 E714.267 F900
G1 X-11.2 Y57.28 Z2.195 F13500
G1 X-27.8 Y47.69 Z2.198 E715.256 F900
G1 X-27.8 Y48.15 Z2.198 F13500
G1 X-11.2 Y57.74 Z2.193 E716.246 F900
G1 X-11.2 Y58.2 Z2.192 F13500
G1 X-27.8 Y48.61 Z2.196 E717.236 F900
G1 X-27.8 Y49.08 Z2.194 F13500
G1 X-11.2 Y58.66 Z2.19 E718.226 F900
G1 X-11.2 Y59.12 Z2.189 F13500
G1 X-27.8 Y49.54 Z2.193 E719.216 F900
G1 X-27.8 Y50 Z2.191 F13500
G1 X-11.2 Y59.58 Z2.187 E720.206 F900
G1 X-11.2 Y60.05 Z2.185 F13500
G1 X-27.8 Y50.46 Z2.189 E721.196 F900
G1 X-27.8 Y50.92 Z2.188 F13500
G1 X-11.2 Y60.51 Z2.184 E722.186 F900
G1 X-11.2 Y60.97 Z2.182 F13500
G1 X-27.8 Y51.38 Z2.186 E723.176 F900
G1 X-27.8 Y51.85 Z2.184 F13500
G1 X-11.2 Y61.43 Z2.18 E724.166 F900
G1 X-11.2 Y61.89 Z2.179 F13500
G1 X-27.8 Y52.31 Z2.183 E725.156 F900
G1 X-27.8 Y52.77 Z2.181 F13500
G1 X-11.2 Y62.35 Z2.177 E726.146 F900
G1 X-11.2 Y62.82 Z2.175 F13500
G1 X-27.8 Y53.23 Z2.179 E727.136 F900
G1 X-27.8 Y53.69 Z2.178 F13500
G1 X-11.2 Y63.28 Z2.174 E728.126 F900
G1 X-11.2 Y63.74 Z2.172 F13500
G1 X-27.8 Y54.16 Z2.176 E729.116 F900
G1 X-27.8 Y54.62 Z2.175 F13500
G1 X-11.2 Y64.2 Z2.17 E730.106 F900
G1 X-11.2 Y64.67 Z2.169 F13500
G1 X-27.8 Y55.08 Z2.173 E731.095 F900
G1 X-27.8 Y55.54 Z2.171 F13500
G1 X-11.2 Y65.13 Z2.167 E732.086 F900
G1 X-11.2 Y65.59 Z2.165 F13500
G1 X-27.8 Y56 Z2.17 E733.075 F900
G1 X-27.8 Y56.47 Z2.168 F13500
G1 X-11.2 Y66.05 Z2.164 E734.065 F900
G1 X-11.2 Y66.51 Z2.162 F13500
G1 X-27.8 Y56.93 Z2.166 E735.055 F900
G1 X-27.8 Y57.39 Z2.165 F13500
G1 X-11.5 Y66.8 Z2.161 E736.027 F900
G1 X-12.3 Y66.8 Z2.159 F13500
G1 X-27.8 Y57.85 Z2.163 E736.951 F900
G1 X-27.8 Y58.31 Z2.161 F13500
G1 X-13.1 Y66.8 Z2.158 E737.828 F900
G1 X-13.9 Y66.8 Z2.156 F13500
G1 X-27.8 Y58.78 Z2.16 E738.656 F900
G1 X-27.8 Y59.24 Z2.158 F13500
G1 X-14.7 Y66.8 Z2.155 E739.437 F900
G1 X-15.5 Y66.8 Z2.153 F13500
G1 X-27.8 Y59.7 Z2.156 E740.171 F900
G1 X-27.8 Y60.16 Z2.155 F13500
G1 X-16.3 Y66.8 Z2.152 E740.856 F900
G1 X-17.1 Y66.8 Z2.15 F13500
G1 X-27.8 Y60.62 Z2.153 E741.494 F900
G1 X-27.8 Y61.08 Z2.151 F13500
G1 X-17.9 Y66.8 Z2.149 E742.084 F900
G1 X-18.7 Y66.8 Z2.148 F13500
G1 X-27.8 Y61.55 Z2.15 E742.627 F900
G1 X-27.8 Y62.01 Z2.148 F13500
G1 X-19.5 Y66.8 Z2.146 E743.121 F900
G1 X-20.3 Y66.8 Z2.145 F13500
G1 X-27.8 Y62.47 Z2.146 E743.568 F900
G1 X-27.8 Y62.93 Z2.145 F13500
G1 X-21.1 Y66.8 Z2.143 E743.967 F900
G1 X-21.9 Y66.8 Z2.142 F13500
G1 X-27.8 Y63.39 Z2.143 E744.319 F900
G1 X-27.8 Y63.86 Z2.142 F13500
G1 X-22.7 Y66.8 Z2.14 E744.623 F900
G1 X-23.5 Y66.8 Z2.139 F13500
G1 X-25.68 Y65.54 Z2.139 E744.753 F900
G1 X-25.24 Y66.26 Z2.138 F13500
G1 X-24.3 Y66.8 Z2.137 E744.809 F900
G1  E741.809 F6600
G1 X-24.3 Y66.8 Z5.137
G1 X-10.6 Y66.74 Z5.162 F13500
G1 X-10.54 Y17.46 Z5.336
G1 X15.54 Y17.46 Z5.427
G1 X15.6 Y66.63 Z5.305
G1 X16.2 Y66.63 Z5.31
G1 X16.2 Y66.63 Z5.31
G1 X16.2 Y66.63 Z2.31
G1  E744.809 F6600
G1 X16.5 Y66.8 Z2.312 E744.827 F900
G1 X16.2 Y66.16 Z2.312 F13500
G1 X17.3 Y66.8 Z2.318 E744.892 F900
G1 X18.1 Y66.8 Z2.324 F13500
G1 X16.2 Y65.7 Z2.313 E745.006 F900
G1 X16.2 Y65.24 Z2.315 F13500
G1 X18.9 Y66.8 Z2.331 E745.167 F900
G1 X19.7 Y66.8 Z2.337 F13500
G1 X16.2 Y64.78 Z2.317 E745.375 F900
G1 X16.2 Y64.32 Z2.318 F13500
G1 X20.5 Y66.8 Z2.343 E745.632 F900
G1 X21.3 Y66.8 Z2.35 F13500
G1 X16.2 Y63.85 Z2.32 E745.936 F900
G1 X16.2 Y63.39 Z2.322 F13500
G1 X22.1 Y66.8 Z2.356 E746.287 F900
G1 X22.9 Y66.8 Z2.362 F13500
G1 X16.2 Y62.93 Z2.323 E746.687 F900
G1 X16.2 Y62.47 Z2.325 F13500
G1 X23.7 Y66.8 Z2.369 E747.134 F900
G1 X24.5 Y66.8 Z2.375 F13500
G1 X16.2 Y62.01 Z2.327 E747.629 F900
G1 X16.2 Y61.54 Z2.328 F13500
G1 X25.1 Y66.68 Z2.38 E748.16 F900
G1 X25.23 Y66.3 Z2.383 F13500
G1 X16.2 Y61.08 Z2.33 E748.698 F900
G1 X16.2 Y60.62 Z2.331 F13500
G1 X25.43 Y65.95 Z2.385 E749.249 F900
G1 X25.64 Y65.61 Z2.388 F13500
G1 X16.2 Y60.16 Z2.333 E749.812 F900
G1 X16.2 Y59.7 Z2.335 F13500
G1 X25.88 Y65.28 Z2.391 E750.389 F900
G1 X26.18 Y65 Z2.395 F13500
G1 X16.2 Y59.24 Z2.336 E750.984 F900
G1 X16.2 Y58.77 Z2.338 F13500
G1 X26.49 Y64.71 Z2.398 E751.598 F900
G1 X26.87 Y64.47 Z2.402 F13500
G1 X16.2 Y58.31 Z2.34 E752.234 F900
G1 X16.2 Y57.85 Z2.341 F13500
G1 X27.28 Y64.25 Z2.406 E752.895 F900
G1 X27.77 Y64.07 Z2.411 F13500
G1 X16.2 Y57.39 Z2.343 E753.585 F900
G1 X16.2 Y56.93 Z2.345 F13500
G1 X27.8 Y63.62 Z2.412 E754.277 F900
G1 X27.8 Y63.16 Z2.414 F13500
G1 X16.2 Y56.46 Z2.346 E754.968 F900
G1 X16.2 Y56 Z2.348 F13500
G1 X27.8 Y62.7 Z2.416 E755.66 F900
G1 X27.8 Y62.24 Z2.417 F13500
G1 X16.2 Y55.54 Z2.35 E756.352 F900
G1 X16.2 Y55.08 Z2.351 F13500
G1 X27.8 Y61.78 Z2.419 E757.044 F900
G1 X27.8 Y61.31 Z2.421 F13500
G1 X16.2 Y54.62 Z2.353 E757.735 F900
G1 X16.2 Y54.15 Z2.355 F13500
G1 X27.8 Y60.85 Z2.422 E758.427 F900
G1 X27.8 Y60.39 Z2.424 F13500
G1 X16.2 Y53.69 Z2.356 E759.119 F900
G1 X16.2 Y53.23 Z2.358 F13500
G1 X27.8 Y59.93 Z2.426 E759.811 F900
G1 X27.8 Y59.47 Z2.427 F13500
G1 X16.2 Y52.77 Z2.36 E760.503 F900
G1 X16.2 Y52.31 Z2.361 F13500
G1 X27.8 Y59.01 Z2.429 E761.194 F900
G1 X27.8 Y58.54 Z2.431 F13500
G1 X16.2 Y51.85 Z2.363 E761.886 F900
G1 X16.2 Y51.38 Z2.364 F13500
G1 X27.8 Y58.08 Z2.432 E762.578 F900
G1 X27.8 Y57.62 Z2.434 F13500
G1 X16.2 Y50.92 Z2.366 E763.27 F900
G1 X16.2 Y50.46 Z2.368 F13500
G1 X27.8 Y57.16 Z2.435 E763.961 F900
G1 X27.8 Y56.7 Z2.437 F13500
G1 X16.2 Y50 Z2.369 E764.653 F900
G1 X16.2 Y49.54 Z2.371 F13500
G1 X27.8 Y56.23 Z2.439 E765.345 F900
G1 X27.8 Y55.77 Z2.44 F13500
G1 X16.2 Y49.07 Z2.373 E766.037 F900
G1 X16.2 Y48.61 Z2.374 F13500
G1 X27.8 Y55.31 Z2.442 E766.728 F900
G1 X27.8 Y54.85 Z2.444 F13500
G1 X16.2 Y48.15 Z2.376 E767.42 F900
G1 X16.2 Y47.69 Z2.378 F13500
G1 X27.8 Y54.39 Z2.445 E768.112 F900
G1 X27.8 Y53.92 Z2.447 F13500
G1 X16.2 Y47.23 Z2.379 E768.804 F900
G1 X16.2 Y46.76 Z2.381 F13500
G1 X27.8 Y53.46 Z2.449 E769.496 F900
G1 X27.8 Y53 Z2.45 F13500
G1 X16.2 Y46.3 Z2.383 E770.187 F900
G1 X16.2 Y45.84 Z2.384 F13500
G1 X27.8 Y52.54 Z2.452 E770.879 F900
G1 X27.8 Y52.08 Z2.454 F13500
G1 X16.2 Y45.38 Z2.386 E771.571 F900
G1 X16.2 Y44.92 Z2.388 F13500
G1 X27.8 Y51.62 Z2.455 E772.263 F900
G1 X27.8 Y51.15 Z2.457 F13500
G1 X16.2 Y44.46 Z2.389 E772.954 F900
G1 X16.2 Y43.99 Z2.391 F13500
G1 X27.8 Y50.69 Z2.459 E773.646 F900
G1 X27.8 Y50.23 Z2.46 F13500
G1 X16.2 Y43.53 Z2.393 E774.338 F900
G1 X16.2 Y43.07 Z2.394 F13500
G1 X27.8 Y49.77 Z2.462 E775.03 F900
G1 X27.8 Y49.31 Z2.464 F13500
G1 X16.2 Y42.61 Z2.396 E775.722 F900
G1 X16.2 Y42.15 Z2.397 F13500
G1 X27.8 Y48.84 Z2.465 E776.413 F900
G1 X27.8 Y48.38 Z2.467 F13500
G1 X16.2 Y41.68 Z2.399 E777.105 F900
G1 X16.2 Y41.22 Z2.401 F13500
G1 X27.8 Y47.92 Z2.467 E777.797 F900
G1 X27.8 Y47.46 Z2.466 F13500
G1 X16.2 Y40.76 Z2.402 E778.489 F900
G1 X16.2 Y40.3 Z2.404 F13500
G1 X27.8 Y47 Z2.465 E779.18 F900
G1 X27.8 Y46.53 Z2.464 F13500
G1 X16.2 Y39.84 Z2.406 E779.872 F900
G1 X16.2 Y39.38 Z2.407 F13500
G1 X27.8 Y46.07 Z2.463 E780.564 F900
G1 X27.8 Y45.61 Z2.462 F13500
G1 X16.2 Y38.91 Z2.409 E781.256 F900
G1 X16.2 Y38.45 Z2.411 F13500
G1 X27.8 Y45.15 Z2.461 E781.948 F900
G1 X27.8 Y44.69 Z2.461 F13500
G1 X16.2 Y37.99 Z2.412 E782.639 F900
G1 X16.2 Y37.53 Z2.414 F13500
G1 X27.8 Y44.22 Z2.46 E783.331 F900
G1 X27.8 Y43.76 Z2.459 F13500
G1 X16.2 Y37.06 Z2.416 E784.023 F900
G1 X16.2 Y36.6 Z2.417 F13500
G1 X27.8 Y43.3 Z2.458 E784.715 F900
G1 X27.8 Y42.84 Z2.457 F13500
G1 X16.2 Y36.14 Z2.419 E785.406 F900
G1 X16.2 Y35.68 Z2.421 F13500
G1 X27.8 Y42.38 Z2.456 E786.098 F900
G1 X27.8 Y41.92 Z2.455 F13500
G1 X16.2 Y35.22 Z2.422 E786.79 F900
G1 X16.2 Y34.76 Z2.424 F13500
G1 X27.8 Y41.45 Z2.454 E787.482 F900
G1 X27.8 Y40.99 Z2.453 F13500
G1 X16.2 Y34.29 Z2.425 E788.174 F900
G1 X16.2 Y33.83 Z2.427 F13500
G1 X27.8 Y40.53 Z2.452 E788.865 F900
G1 X27.8 Y40.07 Z2.451 F13500
G1 X16.2 Y33.37 Z2.429 E789.557 F900
G1 X16.2 Y32.91 Z2.43 F13500
G1 X27.8 Y39.61 Z2.45 E790.249 F900
G1 X27.8 Y39.14 Z2.449 F13500
G1 X16.2 Y32.45 Z2.432 E790.941 F900
G1 X16.2 Y31.99 Z2.434 F13500
G1 X27.8 Y38.68 Z2.448 E791.632 F900
G1 X27.8 Y38.22 Z2.447 F13500
G1 X16.2 Y31.52 Z2.435 E792.324 F900
G1 X16.2 Y31.06 Z2.437 F13500
G1 X27.8 Y37.76 Z2.446 E793.016 F900
G1 X27.8 Y37.3 Z2.445 F13500
G1 X16.2 Y30.6 Z2.439 E793.708 F900
G1 X16.2 Y30.14 Z2.44 F13500
G1 X27.8 Y36.83 Z2.444 E794.4 F900
G1 X27.8 Y36.37 Z2.443 F13500
G1 X16.2 Y29.67 Z2.442 E795.091 F900
G1 X16.2 Y29.21 Z2.444 F13500
G1 X27.8 Y35.91 Z2.442 E795.783 F900
G1 X27.8 Y35.45 Z2.442 F13500
G1 X16.2 Y28.75 Z2.445 E796.475 F900
G1 X16.2 Y28.29 Z2.447 F13500
G1 X27.8 Y34.99 Z2.441 E797.167 F900
G1 X27.8 Y34.53 Z2.44 F13500
G1 X16.2 Y27.83 Z2.447 E797.858 F900
G1 X16.2 Y27.36 Z2.446 F13500
G1 X27.8 Y34.06 Z2.439 E798.55 F900
G1 X27.8 Y33.6 Z2.438 F13500
G1 X16.2 Y26.9 Z2.445 E799.242 F900
G1 X16.2 Y26.44 Z2.444 F13500
G1 X27.8 Y33.14 Z2.437 E799.934 F900
G1 X27.8 Y32.68 Z2.436 F13500
G1 X16.2 Y25.98 Z2.443 E800.626 F900
G1 X16.2 Y25.52 Z2.443 F13500
G1 X27.8 Y32.22 Z2.435 E801.317 F900
G1 X27.8 Y31.75 Z2.434 F13500
G1 X16.2 Y25.06 Z2.442 E802.009 F900
G1 X16.2 Y24.59 Z2.441 F13500
G1 X27.8 Y31.29 Z2.433 E802.701 F900
G1 X27.8 Y30.83 Z2.432 F13500
G1 X16.2 Y24.13 Z2.44 E803.393 F900
G1 X16.2 Y23.67 Z2.439 F13500
G1 X27.8 Y30.37 Z2.431 E804.084 F900
G1 X27.8 Y29.91 Z2.43 F13500
G1 X16.2 Y23.21 Z2.438 E804.776 F900
G1 X16.2 Y22.75 Z2.437 F13500
G1 X27.8 Y29.44 Z2.429 E805.468 F900
G1 X27.8 Y28.98 Z2.428 F13500
G1 X16.2 Y22.28 Z2.436 E806.16 F900
G1 X16.2 Y21.82 Z2.435 F13500
G1 X27.8 Y28.52 Z2.427 E806.852 F900
G1 X27.8 Y28.06 Z2.426 F13500
G1 X16.2 Y21.36 Z2.434 E807.543 F900
G1 X16.2 Y20.9 Z2.433 F13500
G1 X27.8 Y27.6 Z2.425 E808.235 F900
G1 X27.8 Y27.14 Z2.424 F13500
G1 X16.2 Y20.44 Z2.432 E808.927 F900
G1 X16.2 Y19.98 Z2.431 F13500
G1 X27.8 Y26.67 Z2.423 E809.619 F900
G1 X27.8 Y26.21 Z2.423 F13500
G1 X16.2 Y19.51 Z2.43 E810.31 F900
G1 X16.2 Y19.05 Z2.429 F13500
G1 X27.8 Y25.75 Z2.422 E811.002 F900
G1 X27.8 Y25.29 Z2.421 F13500
G1 X16.2 Y18.59 Z2.428 E811.694 F900
G1 X16.2 Y18.13 Z2.427 F13500
G1 X27.8 Y24.83 Z2.42 E812.386 F900
G1 X27.8 Y24.36 Z2.419 F13500
G1 X16.2 Y17.67 Z2.426 E813.078 F900
G1 X16.2 Y17.2 Z2.425 F13500
G1 X27.8 Y23.9 Z2.418 E813.769 F900
G1 X27.8 Y-36.6 Z2.402 F13500
G1 X27.8 Y-36.6 Z2.402
G1 X-24.49 Y-66.8 Z2.008 E816.888 F900
G1 X-23.69 Y-66.8 Z2.009 F13500
G1 X27.8 Y-37.06 Z2.4 E819.959 F900
G1 X27.8 Y-37.53 Z2.398 F13500
G1 X-22.9 Y-66.8 Z2.01 E822.982 F900
G1 X-22.09 Y-66.8 Z2.011 F13500
G1 X27.8 Y-37.99 Z2.396 E825.957 F900
G1 X27.8 Y-38.45 Z2.394 F13500
G1 X-21.29 Y-66.8 Z2.012 E828.885 F900
G1 X-20.49 Y-66.8 Z2.013 F13500
G1 X27.8 Y-38.91 Z2.392 E831.765 F900
G1 X27.8 Y-39.38 Z2.389 F13500
G1 X-19.69 Y-66.8 Z2.014 E834.597 F900
G1 X-18.89 Y-66.8 Z2.015 F13500
G1 X27.8 Y-39.84 Z2.387 E837.382 F900
G1 X27.8 Y-40.3 Z2.385 F13500
G1 X-18.09 Y-66.8 Z2.016 E840.119 F900
G1 X-17.29 Y-66.8 Z2.017 F13500
G1 X27.8 Y-40.76 Z2.383 E842.808 F900
G1 X27.8 Y-41.22 Z2.381 F13500
G1 X-16.49 Y-66.8 Z2.018 E845.45 F900
G1 X-15.69 Y-66.8 Z2.019 F13500
G1 X27.8 Y-41.68 Z2.379 E848.043 F900
G1 X27.8 Y-42.15 Z2.376 F13500
G1 X-14.89 Y-66.8 Z2.02 E850.589 F900
G1 X-14.1 Y-66.8 Z2.021 F13500
G1 X27.8 Y-42.61 Z2.374 E853.088 F900
G1 X27.8 Y-43.07 Z2.372 F13500
G1 X-13.29 Y-66.8 Z2.022 E855.538 F900
G1 X-12.49 Y-66.8 Z2.023 F13500
G1 X27.8 Y-43.53 Z2.37 E857.941 F900
G1 X27.8 Y-43.99 Z2.368 F13500
G1 X-11.69 Y-66.8 Z2.024 E860.297 F900
G1 X-10.89 Y-66.8 Z2.025 F13500
G1 X27.8 Y-44.46 Z2.366 E862.604 F900
G1 X27.8 Y-44.92 Z2.364 F13500
G1 X-10.09 Y-66.8 Z2.026 E864.864 F900
G1 X-9.3 Y-66.8 Z2.027 F13500
G1 X27.8 Y-45.38 Z2.361 E867.076 F900
G1 X27.8 Y-45.84 Z2.359 F13500
G1 X-8.49 Y-66.8 Z2.028 E869.24 F900
G1 X-7.69 Y-66.8 Z2.029 F13500
G1 X27.8 Y-46.3 Z2.357 E871.357 F900
G1 X27.8 Y-46.76 Z2.355 F13500
G1 X-6.89 Y-66.8 Z2.03 E873.426 F900
G1 X-6.09 Y-66.8 Z2.031 F13500
G1 X27.8 Y-47.23 Z2.353 E875.447 F900
G1 X27.8 Y-47.69 Z2.351 F13500
G1 X-5.3 Y-66.8 Z2.032 E877.421 F900
G1 X-4.49 Y-66.8 Z2.033 F13500
G1 X27.8 Y-48.15 Z2.348 E879.347 F900
G1 X27.8 Y-48.61 Z2.346 F13500
G1 X-3.69 Y-66.8 Z2.034 E881.225 F900
G1 X-2.89 Y-66.8 Z2.035 F13500
G1 X27.8 Y-49.07 Z2.343 E883.055 F900
G1 X27.8 Y-49.54 Z2.341 F13500
G1 X-2.09 Y-66.8 Z2.036 E884.838 F900
G1 X-1.29 Y-66.8 Z2.037 F13500
G1 X27.8 Y-50 Z2.338 E886.573 F900
G1 X27.8 Y-50.46 Z2.335 F13500
G1 X-0.5 Y-66.8 Z2.038 E888.26 F900
G1 X0.31 Y-66.8 Z2.041 F13500
G1 X27.8 Y-50.92 Z2.333 E889.9 F900
G1 X27.8 Y-51.38 Z2.33 F13500
G1 X1.11 Y-66.8 Z2.046 E891.492 F900
G1 X1.9 Y-66.8 Z2.052 F13500
G1 X27.8 Y-51.85 Z2.327 E893.036 F900
G1 X27.8 Y-52.31 Z2.325 F13500
G1 X2.7 Y-66.8 Z2.058 E894.533 F900
G1 X3.5 Y-66.8 Z2.064 F13500
G1 X27.8 Y-52.77 Z2.322 E895.982 F900
G1 X27.8 Y-53.23 Z2.319 F13500
G1 X4.3 Y-66.8 Z2.07 E897.383 F900
G1 X5.11 Y-66.8 Z2.076 F13500
G1 X27.8 Y-53.69 Z2.317 E898.736 F900
G1 X27.8 Y-54.15 Z2.314 F13500
G1 X5.91 Y-66.8 Z2.082 E900.042 F900
G1 X6.7 Y-66.8 Z2.087 F13500
G1 X27.8 Y-54.62 Z2.312 E901.3 F900
G1 X27.8 Y-55.08 Z2.309 F13500
G1 X7.5 Y-66.8 Z2.093 E902.51 F900
G1 X8.3 Y-66.8 Z2.099 F13500
G1 X27.8 Y-55.54 Z2.306 E903.673 F900
G1 X27.8 Y-56 Z2.304 F13500
G1 X9.1 Y-66.8 Z2.105 E904.787 F900
G1 X9.9 Y-66.8 Z2.111 F13500
G1 X27.8 Y-56.46 Z2.301 E905.855 F900
G1 X27.8 Y-56.93 Z2.298 F13500
G1 X10.7 Y-66.8 Z2.117 E906.874 F900
G1 X11.51 Y-66.8 Z2.123 F13500
G1 X27.8 Y-57.39 Z2.296 E907.846 F900
G1 X27.8 Y-57.85 Z2.293 F13500
G1 X12.3 Y-66.8 Z2.128 E908.77 F900
G1 X13.1 Y-66.8 Z2.134 F13500
G1 X27.8 Y-58.31 Z2.29 E909.646 F900
G1 X27.8 Y-58.77 Z2.288 F13500
G1 X13.9 Y-66.8 Z2.14 E910.475 F900
G1 X14.7 Y-66.8 Z2.146 F13500
G1 X27.8 Y-59.24 Z2.285 E911.256 F900
G1 X27.8 Y-59.7 Z2.283 F13500
G1 X15.51 Y-66.8 Z2.152 E911.989 F900
G1 X16.3 Y-66.8 Z2.158 F13500
G1 X27.8 Y-60.16 Z2.28 E912.674 F900
G1 X27.8 Y-60.62 Z2.277 F13500
G1 X17.1 Y-66.8 Z2.164 E913.312 F900
G1 X17.91 Y-66.8 Z2.169 F13500
G1 X27.8 Y-61.08 Z2.275 E913.902 F900
G1 X27.8 Y-61.54 Z2.272 F13500
G1 X18.7 Y-66.8 Z2.175 E914.445 F900
G1 X19.5 Y-66.8 Z2.181 F13500
G1 X27.8 Y-62.01 Z2.269 E914.939 F900
G1 X27.8 Y-62.47 Z2.267 F13500
G1 X20.31 Y-66.8 Z2.187 E915.386 F900
G1 X21.1 Y-66.8 Z2.193 F13500
G1 X27.8 Y-62.93 Z2.264 E915.785 F900
G1 X27.8 Y-63.39 Z2.261 F13500
G1 X21.9 Y-66.8 Z2.199 E916.137 F900
G1 X22.7 Y-66.8 Z2.205 F13500
G1 X27.8 Y-63.85 Z2.259 E916.441 F900
G1 X25.68 Y-65.54 Z2.234 F13500
G1 X25.68 Y-65.54 Z2.234
G1 X23.5 Y-66.8 Z2.21 E916.57 F900
G1 X24.31 Y-66.8 Z2.216 F13500
G1 X25.27 Y-66.24 Z2.227 E916.628 F900
G1 X25.49 Y-67.5 Z2.221 F13500
; TYPE:TOP-FILL
G1 X25.28 Y-67.85 Z2.218 E916.642 F900
G1 X25.78 Y-68.02 Z2.22 E916.669
G1 X25.39 Y-68.71 Z2.213 E916.695
G1 X25.91 Y-68.87 Z2.216 E916.719
G1 X25.64 Y-69.49 Z2.211 E916.743
G1 X26.22 Y-69.61 Z2.214 E916.767
G1 X26.04 Y-70.18 Z2.21 E916.791
G1 X26.71 Y-70.25 Z2.214 E916.815
G1 X26.6 Y-70.78 Z2.21 E916.84
G1 X27.41 Y-70.78 Z2.216 E916.867
G1 X27.35 Y-71.27 Z2.213 E916.895
G1 X28.08 Y-71.31 Z2.218 E916.927
G1 X28.67 Y-71.2 Z2.223 E916.958
G1 X28.68 Y-71.66 Z2.221 F13500
G1 X29.53 Y-71.17 Z2.23 E917.009 F900
G1 X29.52 Y-71.64 Z2.227 F13500
G1 X31.92 Y-70.25 Z2.252 E917.152 F900
G1 X31.51 Y-70.03 Z2.251 F13500
G1 X32.35 Y-69.54 Z2.26 E917.203 F900
G1 X31.95 Y-69.31 Z2.258 F13500
G1 X32.34 Y-68.85 Z2.263 E917.239 F900
G1 X32.67 Y-68.2 Z2.27 E917.27
G1 X32.21 Y-68 Z2.267 E917.299
G1 X32.61 Y-67.31 Z2.274 E917.324
G1 X32.1 Y-67.14 Z2.271 E917.35
G1 X32.37 Y-66.53 Z2.277 E917.373
G1 X31.8 Y-66.39 Z2.274 E917.398
G1 X31.98 Y-65.83 Z2.278 E917.42
G1 X31.31 Y-65.75 Z2.274 E917.445
G1 X31.42 Y-65.22 Z2.277 E917.468
G1 X30.63 Y-65.22 Z2.272 E917.495
G1 X30.68 Y-64.73 Z2.275 E917.521
G1 X29.97 Y-64.68 Z2.27 E917.552
G1 X29.38 Y-64.79 Z2.265 E917.583
G1 X29.36 Y-64.34 Z2.267 F13500
G1 X28.56 Y-64.8 Z2.259 E917.631 F900
G1 X28.5 Y-64.37 Z2.261 F13500
G1 X28.69 Y-64.26 Z2.263 E917.642 F900
G1  E914.642 F6600
G1 X28.69 Y-64.26 Z5.263
G1 X28.5 Y-64.26 Z5.262 F13500
G1 X-25.47 Y-67.68 Z5.002
G1 X-25.47 Y-67.68 Z5.002
G1 X-25.26 Y-67.7 Z5.002
G1 X-25.26 Y-67.7 Z2.002
G1  E917.642 F6600
G1 X-25.79 Y-67.78 Z2.001 E917.673 F900
G1 X-25.52 Y-67.85 Z2.001 E917.678
G1 X-25.59 Y-68.58 Z1.996 E917.707
G1 X-25.95 Y-69.02 Z1.993 E917.736
G1 X-25.54 Y-69.25 Z1.992 F13500
G1 X-26.24 Y-69.65 Z1.989 E917.778 F900
G1 X-25.84 Y-69.88 Z1.988 F13500
G1 X-27.06 Y-70.59 Z1.983 E917.851 F900
G1 X-27.47 Y-70.82 Z1.981 F13500
G1 X-28.98 Y-71.69 Z1.974 E917.941 F900
G1 X-28.94 Y-71.21 Z1.977 F13500
G1 X-29.65 Y-71.62 Z1.974 E917.983 F900
G1 X-29.63 Y-71.15 Z1.977 F13500
G1 X-30.19 Y-71.24 Z1.975 E918.017 F900
G1 X-30.86 Y-71.16 Z1.975 E918.045
G1 X-30.79 Y-70.66 Z1.978 E918.072
G1 X-31.55 Y-70.64 Z1.977 E918.097
G1 X-31.42 Y-70.1 Z1.98 E918.122
G1 X-32.07 Y-70.01 Z1.98 E918.145
G1 X-31.87 Y-69.44 Z1.984 E918.169
G1 X-32.43 Y-69.3 Z1.984 E918.193
G1 X-32.14 Y-68.67 Z1.988 E918.217
G1 X-32.64 Y-68.49 Z1.988 E918.243
G1 X-32.2 Y-67.78 Z1.993 E918.269
G1 X-32.65 Y-67.58 Z1.993 E918.299
G1 X-32.27 Y-66.9 Z1.998 E918.331
G1 X-31.79 Y-66.39 Z2.001 E918.367
G1 X-32.18 Y-66.15 Z2.002 F13500
G1 X-30.95 Y-65.44 Z2.007 E918.44 F900
G1 X-31.49 Y-65.29 Z2.008 F13500
G1 X-30.1 Y-64.49 Z2.014 E918.523 F900
G1 X-30.23 Y-65.03 Z2.011 F13500
G1 X-28.96 Y-64.29 Z2.017 E918.598 F900
G1 X-28.96 Y-64.76 Z2.014 F13500
G1 X-28.5 Y-64.49 Z2.016 E918.626 F900
G1 X-28.48 Y-64.53 Z2.016 F13500
G1 X-28.14 Y-64.56 Z2.016
G1 X-27.32 Y-64.89 Z2.015
G1 X-26.59 Y-65.4 Z2.013
G1 X-26.02 Y-66.08 Z2.01
G1 X-25.64 Y-66.88 Z2.006
G1 X-25.47 Y-67.75 Z2.001
G1 X-25.52 Y-68.64 Z1.996
G1 X-25.79 Y-69.49 Z1.991
G1 X-26.26 Y-70.24 Z1.986
G1 X-26.71 Y-70.64 Z1.983
G1 X-26.71 Y-70.63 Z1.983
G1 X-26.71 Y-70.63 Z1.983
G1 X-26.57 Y-70.76 Z1.983
G1 X-27.78 Y-71.46 Z1.977 E918.698 F900
G1  E915.698 F6600
G1 X-27.78 Y-71.46 Z4.977
G1 X-27.84 Y-71.28 Z4.978 F13500
G1 X-27.84 Y-71.32 Z4.978
G1 X-27.68 Y-71.28 Z4.978
G1 X-26.9 Y-70.85 Z4.982
G1 X-26.26 Y-70.24 Z4.986
G1 X-25.79 Y-69.49 Z4.991
G1 X-25.52 Y-68.64 Z4.996
G1 X-25.47 Y-67.75 Z5.001
G1 X-25.64 Y-66.88 Z5.006
G1 X-26.02 Y-66.08 Z5.01
G1 X-26.59 Y-65.4 Z5.013
G1 X-27.32 Y-64.89 Z5.015
G1 X-27.87 Y-64.68 Z5.016
G1 X-28.5 Y64.15 Z5.139
G1 X-28.5 Y64.55 Z5.138
G1 X-28.5 Y64.26 Z5.139
G1 X-28.5 Y64.26 Z5.139
G1 X-28.69 Y64.26 Z5.138
G1 X-28.69 Y64.26 Z2.138
G1  E918.698 F6600
G1 X-28.5 Y64.38 Z2.138 E918.71 F900
G1 X-28.59 Y64.79 Z2.137 F13500
G1 X-29.36 Y64.34 Z2.137 E918.755 F900
G1 X-29.39 Y64.78 Z2.135 F13500
G1 X-29.96 Y64.69 Z2.135 E918.79 F900
G1 X-30.68 Y64.73 Z2.133 E918.821
G1 X-30.62 Y65.22 Z2.131 E918.849
G1 X-31.42 Y65.23 Z2.13 E918.875
G1 X-31.31 Y65.75 Z2.128 E918.9
G1 X-31.97 Y65.83 Z2.127 E918.924
G1 X-31.79 Y66.4 Z2.125 E918.947
G1 X-32.37 Y66.53 Z2.124 E918.971
G1 X-32.1 Y67.14 Z2.122 E918.995
G1 X-32.61 Y67.31 Z2.12 E919.02
G1 X-32.21 Y68 Z2.119 E919.046
G1 X-32.67 Y68.2 Z2.117 E919.074
G1 X-32.34 Y68.85 Z2.115 E919.105
G1 X-31.92 Y69.32 Z2.114 E919.137
G1 X-32.35 Y69.54 Z2.113 F13500
G1 X-31.47 Y70.05 Z2.113 E919.189 F900
G1 X-31.92 Y70.25 Z2.111 F13500
G1 X-29.52 Y71.64 Z2.111 E919.333 F900
G1 X-29.52 Y71.17 Z2.112 F13500
G1 X-28.68 Y71.66 Z2.112 E919.383 F900
G1 X-28.68 Y71.2 Z2.114 F13500
G1 X-28.06 Y71.32 Z2.114 E919.42 F900
G1 X-27.34 Y71.28 Z2.116 E919.451
G1 X-27.4 Y70.78 Z2.117 E919.479
G1 X-26.59 Y70.78 Z2.119 E919.506
G1 X-26.71 Y70.26 Z2.121 E919.53
G1 X-26.04 Y70.18 Z2.122 E919.555
G1 X-26.22 Y69.62 Z2.124 E919.577
G1 X-25.63 Y69.49 Z2.125 E919.602
G1 X-25.9 Y68.88 Z2.127 E919.625
G1 X-25.39 Y68.71 Z2.129 E919.651
G1 X-25.78 Y68.02 Z2.13 E919.676
G1 X-25.28 Y67.85 Z2.132 E919.705
G1 X-25.49 Y67.5 Z2.133 E919.725
G1  E916.725 F6600
G1 X-25.49 Y67.5 Z5.133
G1 X-25.54 Y67.5 Z5.133 F13500
G1 X-25.49 Y67.45 Z5.133
G1 X-10.54 Y67.46 Z5.16
G1 X-10.54 Y17.46 Z5.336
G1 X15.54 Y17.46 Z5.427
G1 X15.54 Y67.46 Z5.302
G1 X25.49 Y67.45 Z5.38
G1 X25.57 Y67.68 Z5.38
G1 X25.47 Y67.68 Z5.379
G1 X25.47 Y67.68 Z5.379
G1 X25.27 Y67.7 Z5.378
G1 X25.27 Y67.7 Z2.378
G1  E919.725 F6600
G1 X25.79 Y67.78 Z2.382 E919.756 F900
G1 X25.52 Y67.85 Z2.379 E919.761
G1 X25.6 Y68.59 Z2.377 E919.791
G1 X25.73 Y69.13 Z2.376 E919.823
G1 X26.22 Y69.64 Z2.378 E919.86
G1 X25.84 Y69.89 Z2.375 F13500
G1 X27.22 Y70.68 Z2.383 E919.942 F900
G1 X27.62 Y70.91 Z2.385 F13500
G1 X28.98 Y71.7 Z2.393 E920.023 F900
G1 X28.99 Y71.24 Z2.395 F13500
G1 X29.65 Y71.39 Z2.399 E920.063 F900
G1 X30.18 Y71.23 Z2.404 E920.095
G1 X30.86 Y71.17 Z2.41 E920.125
G1 X30.79 Y70.66 Z2.411 E920.151
G1 X31.55 Y70.64 Z2.417 E920.177
G1 X31.43 Y70.11 Z2.418 E920.201
G1 X32.07 Y70.02 Z2.423 E920.226
G1 X31.87 Y69.44 Z2.424 E920.249
G1 X32.44 Y69.3 Z2.429 E920.273
G1 X32.14 Y68.67 Z2.429 E920.297
G1 X32.64 Y68.5 Z2.433 E920.323
G1 X32.21 Y67.78 Z2.432 E920.35
G1 X32.65 Y67.58 Z2.437 E920.379
G1 X32.26 Y66.89 Z2.436 E920.413
G1 X31.78 Y66.38 Z2.434 E920.449
G1 X32.18 Y66.15 Z2.438 F13500
G1 X31.01 Y65.48 Z2.431 E920.518 F900
G1 X31.49 Y65.29 Z2.436 F13500
G1 X30.1 Y64.49 Z2.427 E920.601 F900
G1 X30.14 Y64.98 Z2.426 F13500
G1 X28.97 Y64.3 Z2.419 E920.671 F900
G1 X29.01 Y64.79 Z2.418 F13500
G1 X28.5 Y64.49 Z2.415 E920.701 F900
G1 X28.49 Y64.53 Z2.415 F13500
G1 X27.71 Y64.71 Z2.408
G1 X26.93 Y65.13 Z2.4
G1 X26.28 Y65.74 Z2.393
G1 X25.8 Y66.49 Z2.386
G1 X25.52 Y67.33 Z2.381
G1 X25.47 Y68.22 Z2.378
G1 X25.63 Y69.09 Z2.376
G1 X26.01 Y69.89 Z2.376
G1 X26.57 Y70.58 Z2.378
G1 X26.7 Y70.66 Z2.379
G1 X26.71 Y70.62 Z2.379
G1 X26.71 Y70.62 Z2.379
G1 X26.57 Y70.76 Z2.377
G1 X27.78 Y71.47 Z2.384 E920.774 F900
G1 X27.78 Y71.47 Z2.684 F13500
; LAYER:1
G1  E917.774 F6600
G1 X27.78 Y71.47 Z5.684
G1 X27.85 Y71.28 Z2.585 F13500
G1 X27.66 Y71.27 Z2.584
G1 X26.88 Y70.66 Z2.58
G1 X26.34 Y70.12 Z2.578
G1 X25.94 Y69.47 Z2.577
G1 X25.69 Y68.75 Z2.577
G1 X25.49 Y67.45 Z2.58
G1 X15.54 Y67.46 Z2.502
G1 X15.54 Y17.46 Z2.627
G1 X-10.54 Y17.46 Z2.536
G1 X-10.54 Y67.46 Z2.36
G1 X-25.49 Y67.45 Z2.333
G1 X-25.57 Y67.76 Z2.332
G1 X-25.47 Y67.76 Z2.332
G1 X-25.47 Y67.76 Z2.332
G1 X-25.18 Y67.8 Z2.332
G1 X-25.59 Y67.88 Z2.331
; TYPE:WALL-INNER
G1 X-25.59 Y67.88 Z2.331
G1  E920.774 F6600
G1 X-25.62 Y67.33 Z2.333 E920.793 F2400
G1 X-25.9 Y66.52 Z2.335 E920.822
G1 X-26.32 Y65.84 Z2.337 E920.85
G1 X-26.94 Y65.25 Z2.338 E920.879
G1 X-27.69 Y64.82 Z2.338 E920.909
G1 X-28.53 Y64.6 Z2.338 E920.939
G1 X-28.89 Y64.59 Z2.337 E920.951
G1 X-28.4 Y64.54 Z2.338 E920.968
G1 X-28.4 Y-64.53 Z2.216 E925.412
G1 X-28.82 Y-64.58 Z2.215 E925.427
G1 X-28.14 Y-64.67 Z2.215 E925.451
G1 X-27.33 Y-64.99 Z2.215 E925.48
G1 X-26.64 Y-65.5 Z2.213 E925.51
G1 X-26.09 Y-66.17 Z2.209 E925.54
G1 X-25.72 Y-66.95 Z2.205 E925.57
G1 X-25.57 Y-67.75 Z2.201 E925.598
G1 X-25.53 Y-67.4 Z2.203 E925.61
G1 X25.54 Y-67.4 Z2.422 E927.368
G1 X25.57 Y-67.74 Z2.42 E927.38
G1 X25.72 Y-66.94 Z2.426 E927.408
G1 X26.09 Y-66.15 Z2.433 E927.438
G1 X26.64 Y-65.49 Z2.441 E927.467
G1 X27.33 Y-64.98 Z2.449 E927.497
G1 X28.14 Y-64.66 Z2.457 E927.527
G1 X28.78 Y-64.58 Z2.462 E927.549
G1 X28.4 Y-64.53 Z2.459 E927.562
G1 X28.4 Y64.54 Z2.614 E932.006
G1 X28.87 Y64.59 Z2.617 E932.022
G1 X28.6 Y64.59 Z2.615 E932.032
G1 X27.77 Y64.79 Z2.608 E932.061
G1 X27 Y65.2 Z2.6 E932.091
G1 X26.37 Y65.79 Z2.593 E932.121
G1 X25.9 Y66.51 Z2.587 E932.151
G1 X25.63 Y67.33 Z2.582 E932.18
G1 X25.59 Y67.88 Z2.58 E932.199
G1 X25.54 Y67.4 Z2.581 E932.215
G1 X15.6 Y67.4 Z2.503 E932.557
G1 X15.6 Y17.4 Z2.627 E934.279
G1 X-10.6 Y17.4 Z2.535 E935.181
G1 X-10.6 Y67.4 Z2.36 E936.902
G1 X-25.53 Y67.4 Z2.333 E937.417
G1 X-25.59 Y67.88 Z2.331 E937.433
G1 X-25.31 Y67 Z2.335 F13500
G1 X-25.53 Y66.34 Z2.337 E937.457 F2400
G1 X-26.01 Y65.59 Z2.339 E937.487
G1 X-26.7 Y64.92 Z2.34 E937.521
G1 X-27.54 Y64.45 Z2.34 E937.554
G1 X-28 Y64.32 Z2.339 E937.57
G1 X-28 Y-64.29 Z2.218 E941.998
G1 X-27.14 Y-64.63 Z2.217 E942.03
G1 X-26.36 Y-65.2 Z2.215 E942.063
G1 X-25.75 Y-65.95 Z2.211 E942.096
G1 X-25.34 Y-66.83 Z2.207 E942.13
G1 X-25.31 Y-67 Z2.206 E942.136
G1 X25.3 Y-67 Z2.423 E943.878
G1 X25.34 Y-66.82 Z2.424 E943.885
G1 X25.75 Y-65.94 Z2.432 E943.918
G1 X26.36 Y-65.19 Z2.441 E943.951
G1 X27.14 Y-64.62 Z2.45 E943.984
G1 X28 Y-64.28 Z2.458 E944.016
G1 X28 Y64.32 Z2.611 E948.444
G1 X27.62 Y64.42 Z2.608 E948.458
G1 X26.77 Y64.87 Z2.6 E948.491
G1 X26.06 Y65.53 Z2.592 E948.524
G1 X25.54 Y66.34 Z2.585 E948.557
G1 X25.32 Y67 Z2.581 E948.581
G1 X16 Y67 Z2.507 E948.902
G1 X16 Y17 Z2.625 E950.623
G1 X-11 Y17 Z2.532 E951.553
G1 X-11 Y67 Z2.361 E953.274
G1 X-25.31 Y67 Z2.335 E953.767
G1 X-25.18 Y67.8 Z2.332 F13500
; TYPE:WALL-OUTER
G1 X-25.29 Y68.85 Z2.328 E953.804 F1800
G1 X-25.58 Y69.65 Z2.325 E953.833
G1 X-26.03 Y70.37 Z2.321 E953.862
G1 X-26.63 Y70.97 Z2.318 E953.891
G1 X-27.35 Y71.42 Z2.315 E953.921
G1 X-28.15 Y71.7 Z2.313 E953.95
G1 X-29 Y71.8 Z2.311 E953.979
G1 X-29.84 Y71.7 Z2.31 E954.008
G1 X-30.65 Y71.42 Z2.309 E954.038
G1 X-31.37 Y70.97 Z2.31 E954.067
G1 X-31.97 Y70.37 Z2.311 E954.096
G1 X-32.42 Y69.65 Z2.312 E954.125
G1 X-32.7 Y68.85 Z2.315 E954.155
G1 X-32.8 Y68 Z2.318 E954.184
G1 X-32.7 Y67.15 Z2.321 E954.213
G1 X-32.42 Y66.35 Z2.324 E954.242
G1 X-31.97 Y65.63 Z2.328 E954.272
G1 X-31.37 Y65.03 Z2.331 E954.301
G1 X-30.65 Y64.58 Z2.334 E954.33
G1 X-29.84 Y64.3 Z2.336 E954.359
G1 X-28.8 Y64.18 Z2.339 E954.396
G1 X-28.8 Y-64.18 Z2.217 E958.815
G1 X-29.84 Y-64.29 Z2.215 E958.851
G1 X-30.65 Y-64.57 Z2.213 E958.88
G1 X-31.37 Y-65.03 Z2.209 E958.91
G1 X-31.97 Y-65.63 Z2.205 E958.939
G1 X-32.42 Y-66.35 Z2.2 E958.968
G1 X-32.7 Y-67.15 Z2.196 E958.997
G1 X-32.8 Y-68 Z2.191 E959.027
G1 X-32.7 Y-68.84 Z2.186 E959.056
G1 X-32.42 Y-69.65 Z2.182 E959.085
G1 X-31.97 Y-70.37 Z2.178 E959.115
G1 X-31.37 Y-70.96 Z2.175 E959.144
G1 X-30.65 Y-71.42 Z2.174 E959.173
G1 X-29.84 Y-71.7 Z2.173 E959.202
G1 X-29 Y-71.8 Z2.174 E959.231
G1 X-28.15 Y-71.7 Z2.175 E959.261
G1 X-27.35 Y-71.42 Z2.178 E959.29
G1 X-26.63 Y-70.96 Z2.181 E959.319
G1 X-26.03 Y-70.37 Z2.185 E959.349
G1 X-25.58 Y-69.65 Z2.19 E959.378
G1 X-25.29 Y-68.84 Z2.195 E959.407
G1 X-25.18 Y-67.8 Z2.201 E959.443
G1 X25.18 Y-67.8 Z2.417 E961.177
G1 X25.3 Y-68.84 Z2.412 E961.213
G1 X25.58 Y-69.65 Z2.409 E961.243
G1 X26.03 Y-70.37 Z2.409 E961.272
G1 X26.63 Y-70.96 Z2.41 E961.301
G1 X27.35 Y-71.42 Z2.412 E961.33
G1 X28.16 Y-71.7 Z2.417 E961.36
G1 X29 Y-71.8 Z2.422 E961.389
G1 X29.84 Y-71.7 Z2.429 E961.418
G1 X30.65 Y-71.42 Z2.436 E961.448
G1 X31.37 Y-70.96 Z2.444 E961.477
G1 X31.97 Y-70.37 Z2.452 E961.506
G1 X32.42 Y-69.65 Z2.46 E961.535
G1 X32.7 Y-68.84 Z2.466 E961.565
G1 X32.8 Y-68 Z2.472 E961.594
G1 X32.7 Y-67.15 Z2.476 E961.623
G1 X32.42 Y-66.35 Z2.478 E961.653
G1 X31.97 Y-65.63 Z2.479 E961.682
G1 X31.37 Y-65.03 Z2.478 E961.711
G1 X30.65 Y-64.57 Z2.476 E961.74
G1 X29.84 Y-64.29 Z2.471 E961.77
G1 X28.8 Y-64.18 Z2.464 E961.806
G1 X28.8 Y64.18 Z2.618 E966.225
G1 X29.84 Y64.3 Z2.626 E966.261
G1 X30.65 Y64.58 Z2.631 E966.291
G1 X31.37 Y65.03 Z2.636 E966.32
G1 X31.97 Y65.63 Z2.638 E966.349
G1 X32.42 Y66.35 Z2.639 E966.378
G1 X32.7 Y67.15 Z2.639 E966.408
G1 X32.8 Y68 Z2.636 E966.437
G1 X32.7 Y68.85 Z2.632 E966.466
G1 X32.42 Y69.65 Z2.627 E966.496
G1 X31.97 Y70.37 Z2.621 E966.525
G1 X31.37 Y70.97 Z2.614 E966.554
G1 X30.65 Y71.42 Z2.607 E966.583
G1 X29.84 Y71.7 Z2.6 E966.613
G1 X29 Y71.8 Z2.593 E966.642
G1 X28.16 Y71.7 Z2.586 E966.671
G1 X27.35 Y71.42 Z2.581 E966.7
G1 X26.63 Y70.97 Z2.577 E966.73
G1 X26.03 Y70.37 Z2.574 E966.759
G1 X25.58 Y69.65 Z2.573 E966.788
G1 X25.3 Y68.85 Z2.574 E966.817
G1 X25.18 Y67.8 Z2.577 E966.854
G1 X15.2 Y67.8 Z2.498 E967.197
G1 X15.2 Y17.8 Z2.629 E968.919
G1 X-10.2 Y17.8 Z2.538 E969.793
G1 X-10.2 Y67.8 Z2.359 E971.515
G1 X-25.18 Y67.8 Z2.332 E972.03
G1 X-25.47 Y67.76 Z2.332 F13500
G1 X-25.61 Y67.65 Z2.332
G1 X-25.9 Y66.52 Z2.335
G1 X-26.32 Y65.85 Z2.337
G1 X-26.94 Y65.25 Z2.338
G1 X-27.69 Y64.82 Z2.338
G1 X-28.53 Y64.6 Z2.338
G1 X-29.37 Y64.66 Z2.336
G1 X-29.34 Y64.69 Z2.336
G1 X-29.34 Y64.69 Z2.336
G1 X-29.35 Y64.99 Z2.335
G1 X-30.09 Y65.17 Z2.333 E972.056 F1800
G1 X-30.76 Y65.53 Z2.33 E972.083
G1 X-31.32 Y66.05 Z2.327 E972.109
G1 X-31.73 Y66.69 Z2.324 E972.135
G1 X-31.98 Y67.41 Z2.321 E972.162
G1 X-32.03 Y68.18 Z2.318 E972.188
G1 X-31.89 Y68.93 Z2.316 E972.214
G1 X-31.57 Y69.62 Z2.314 E972.24
G1 X-31.08 Y70.21 Z2.313 E972.267
G1 X-30.46 Y70.66 Z2.312 E972.293
G1 X-29.75 Y70.94 Z2.313 E972.319
G1 X-29 Y71.04 Z2.314 E972.346
G1 X-28.24 Y70.94 Z2.315 E972.372
G1 X-27.53 Y70.66 Z2.318 E972.398
G1 X-26.91 Y70.21 Z2.32 E972.424
G1 X-26.43 Y69.62 Z2.323 E972.451
G1 X-26.11 Y68.93 Z2.326 E972.477
G1 X-25.97 Y68.18 Z2.329 E972.503
G1 X-26.02 Y67.41 Z2.332 E972.529
G1 X-26.26 Y66.69 Z2.334 E972.556
G1 X-26.63 Y66.1 Z2.336 E972.58
G1 X-27.18 Y65.57 Z2.337 E972.606
G1 X-27.85 Y65.19 Z2.337 E972.632
G1 X-28.58 Y65 Z2.336 E972.658
G1 X-29.35 Y64.99 Z2.335 E972.685
G1  E969.685 F6600
G1 X-29.35 Y64.99 Z5.335
G1 X-29.34 Y64.69 Z5.336 F13500
G1 X-29.17 Y64.69 Z5.336
G1 X-28.77 Y64.69 Z5.337
G1 X-10.6 Y64.69 Z5.37
G1 X-10.54 Y17.46 Z5.536
G1 X15.54 Y17.46 Z5.627
G1 X15.6 Y64.69 Z5.512
G1 X20.37 Y64.69 Z5.55
G1 X20.77 Y64.69 Z5.553
G1 X28.66 Y64.69 Z5.615
G1 X28.66 Y64.69 Z5.615
G1 X28.65 Y64.99 Z5.614
G1 X28.65 Y64.99 Z2.614
G1  E972.685 F6600
G1 X27.91 Y65.17 Z2.608 E972.711 F1800
G1 X27.24 Y65.53 Z2.601 E972.737
G1 X26.68 Y66.05 Z2.595 E972.763
G1 X26.26 Y66.69 Z2.589 E972.79
G1 X26.02 Y67.41 Z2.585 E972.816
G1 X25.97 Y68.18 Z2.582 E972.842
G1 X26.11 Y68.93 Z2.58 E972.868
G1 X26.43 Y69.62 Z2.58 E972.895
G1 X26.92 Y70.21 Z2.582 E972.921
G1 X27.53 Y70.66 Z2.585 E972.947
G1 X28.24 Y70.94 Z2.59 E972.974
G1 X29 Y71.04 Z2.595 E973
G1 X29.76 Y70.94 Z2.602 E973.026
G1 X30.47 Y70.66 Z2.608 E973.052
G1 X31.08 Y70.21 Z2.615 E973.079
G1 X31.57 Y69.62 Z2.621 E973.105
G1 X31.89 Y68.93 Z2.626 E973.131
G1 X32.03 Y68.18 Z2.63 E973.157
G1 X31.98 Y67.41 Z2.632 E973.184
G1 X31.74 Y66.69 Z2.633 E973.21
G1 X31.36 Y66.1 Z2.632 E973.234
G1 X30.82 Y65.57 Z2.629 E973.26
G1 X30.15 Y65.19 Z2.625 E973.286
G1 X29.42 Y65 Z2.62 E973.313
G1 X28.65 Y64.99 Z2.614 E973.339
G1  E970.339 F6600
G1 X28.65 Y64.99 Z5.614
G1 X28.66 Y64.69 Z5.615 F13500
G1 X28.65 Y64.56 Z5.616
G1 X28.45 Y64.49 Z5.614
G1 X28.45 Y-64.49 Z5.46
G1 X28.65 Y-64.56 Z5.461
G1 X28.65 Y-64.59 Z5.461
G1 X28.14 Y-64.66 Z5.457
G1 X27.34 Y-64.98 Z5.449
G1 X26.64 Y-65.49 Z5.441
G1 X26.09 Y-66.15 Z5.433
G1 X25.72 Y-66.94 Z5.426
G1 X25.57 Y-67.79 Z5.42
G1 X25.63 Y-68.65 Z5.415
G1 X25.9 Y-69.47 Z5.413
G1 X26.37 Y-70.2 Z5.412
G1 X27 Y-70.78 Z5.413
G1 X27.76 Y-71.19 Z5.417
G1 X28.6 Y-71.4 Z5.422
G1 X28.65 Y-71.4 Z5.422
G1 X28.65 Y-71.3 Z5.422
G1 X28.65 Y-71.3 Z5.422
G1 X28.65 Y-71 Z5.424
G1 X28.65 Y-71 Z2.424
G1  E973.339 F6600
G1 X27.91 Y-70.82 Z2.42 E973.365 F1800
G1 X27.24 Y-70.46 Z2.417 E973.391
G1 X26.67 Y-69.94 Z2.416 E973.417
G1 X26.26 Y-69.3 Z2.416 E973.444
G1 X26.02 Y-68.57 Z2.419 E973.47
G1 X25.97 Y-67.81 Z2.423 E973.496
G1 X26.11 Y-67.06 Z2.428 E973.523
G1 X26.43 Y-66.37 Z2.434 E973.549
G1 X26.91 Y-65.78 Z2.441 E973.575
G1 X27.53 Y-65.33 Z2.448 E973.601
G1 X28.24 Y-65.05 Z2.455 E973.628
G1 X29 Y-64.95 Z2.461 E973.654
G1 X29.75 Y-65.05 Z2.466 E973.68
G1 X30.46 Y-65.33 Z2.47 E973.707
G1 X31.08 Y-65.78 Z2.472 E973.733
G1 X31.57 Y-66.37 Z2.472 E973.759
G1 X31.89 Y-67.06 Z2.47 E973.785
G1 X32.03 Y-67.81 Z2.467 E973.812
G1 X31.98 Y-68.57 Z2.462 E973.838
G1 X31.73 Y-69.3 Z2.456 E973.864
G1 X31.36 Y-69.89 Z2.45 E973.888
G1 X30.81 Y-70.42 Z2.443 E973.914
G1 X30.15 Y-70.79 Z2.436 E973.941
G1 X29.41 Y-70.99 Z2.43 E973.967
G1 X28.65 Y-71 Z2.424 E973.993
G1  E970.993 F6600
G1 X28.65 Y-71 Z5.424
G1 X28.65 Y-71.3 Z5.422 F13500
G1 X27.82 Y-71.3 Z5.416
G1 X27.52 Y-71.06 Z5.416
G1 X26.88 Y-70.65 Z5.413
G1 X26.34 Y-70.12 Z5.412
G1 X25.94 Y-69.47 Z5.413
G1 X25.69 Y-68.75 Z5.415
G1 X25.49 Y-67.45 Z5.421
G1 X-25.49 Y-67.45 Z5.203
G1 X-25.68 Y-68.75 Z5.195
G1 X-25.94 Y-69.47 Z5.191
G1 X-26.34 Y-70.12 Z5.187
G1 X-26.88 Y-70.65 Z5.183
G1 X-27.75 Y-71.31 Z5.178
G1 X-28.77 Y-71.31 Z5.177
G1 X-29.17 Y-71.31 Z5.176
G1 X-29.34 Y-71.31 Z5.176
G1 X-29.34 Y-71.31 Z5.176
G1 X-29.35 Y-71.01 Z5.178
G1 X-29.35 Y-71.01 Z2.178
G1  E973.993 F6600
G1 X-30.09 Y-70.83 Z2.178 E974.019 F1800
G1 X-30.76 Y-70.47 Z2.179 E974.046
G1 X-31.32 Y-69.95 Z2.181 E974.072
G1 X-31.73 Y-69.31 Z2.184 E974.098
G1 X-31.98 Y-68.58 Z2.188 E974.124
G1 X-32.03 Y-67.82 Z2.193 E974.151
G1 X-31.89 Y-67.07 Z2.197 E974.177
G1 X-31.57 Y-66.38 Z2.201 E974.203
G1 X-31.08 Y-65.79 Z2.205 E974.229
G1 X-30.46 Y-65.34 Z2.209 E974.256
G1 X-29.75 Y-65.06 Z2.211 E974.282
G1 X-29 Y-64.96 Z2.213 E974.308
G1 X-28.24 Y-65.06 Z2.213 E974.335
G1 X-27.53 Y-65.34 Z2.212 E974.361
G1 X-26.91 Y-65.79 Z2.211 E974.387
G1 X-26.43 Y-66.38 Z2.208 E974.413
G1 X-26.11 Y-67.07 Z2.204 E974.44
G1 X-25.97 Y-67.82 Z2.2 E974.466
G1 X-26.02 Y-68.58 Z2.196 E974.492
G1 X-26.26 Y-69.31 Z2.191 E974.518
G1 X-26.63 Y-69.9 Z2.187 E974.542
G1 X-27.18 Y-70.43 Z2.184 E974.569
G1 X-27.85 Y-70.8 Z2.181 E974.595
G1 X-28.58 Y-71 Z2.179 E974.621
G1 X-29.35 Y-71.01 Z2.178 E974.647
G1 X-29.34 Y-71.31 Z2.176 F13500
G1 X-29.38 Y-71.35 Z2.176
G1 X-28.53 Y-71.4 Z2.176
G1 X-27.69 Y-71.18 Z2.179
G1 X-26.94 Y-70.75 Z2.182
G1 X-26.32 Y-70.15 Z2.186
G1 X-25.9 Y-69.48 Z2.191
G1 X-25.63 Y-68.66 Z2.196
G1 X-25.62 Y-67.68 Z2.201
G1 X-24.71 Y-66.79 Z2.208
G1 X-24.71 Y-66.79 Z2.208
; TYPE:FILL
G1 X-27.8 Y-61.45 Z2.234 E974.86 F3000
G1 X-27.8 Y-60.65 Z2.239 F13500
G1 X-24.25 Y-66.79 Z2.208 E975.104 F3000
G1 X-23.79 Y-66.79 Z2.209 F13500
G1 X-27.8 Y-59.85 Z2.243 E975.38 F3000
G1 X-27.8 Y-59.05 Z2.248 F13500
G1 X-23.33 Y-66.79 Z2.209 E975.687 F3000
G1 X-22.86 Y-66.79 Z2.21 F13500
G1 X-27.8 Y-58.25 Z2.252 E976.027 F3000
G1 X-27.8 Y-57.45 Z2.257 F13500
G1 X-22.4 Y-66.79 Z2.21 E976.398 F3000
G1 X-21.94 Y-66.79 Z2.211 F13500
G1 X-27.8 Y-56.65 Z2.262 E976.801 F3000
G1 X-27.8 Y-55.85 Z2.266 F13500
G1 X-21.48 Y-66.79 Z2.212 E977.236 F3000
G1 X-21.02 Y-66.79 Z2.212 F13500
G1 X-27.8 Y-55.05 Z2.271 E977.703 F3000
G1 X-27.8 Y-54.26 Z2.275 F13500
G1 X-20.56 Y-66.79 Z2.213 E978.202 F3000
G1 X-20.09 Y-66.8 Z2.213 F13500
G1 X-27.8 Y-53.45 Z2.28 E978.732 F3000
G1 X-27.8 Y-52.65 Z2.284 F13500
G1 X-19.63 Y-66.8 Z2.214 E979.294 F3000
G1 X-19.17 Y-66.8 Z2.214 F13500
G1 X-27.8 Y-51.85 Z2.289 E979.888 F3000
G1 X-27.8 Y-51.05 Z2.294 F13500
G1 X-18.71 Y-66.8 Z2.215 E980.514 F3000
G1 X-18.25 Y-66.8 Z2.216 F13500
G1 X-27.8 Y-50.25 Z2.298 E981.172 F3000
G1 X-27.8 Y-49.45 Z2.303 F13500
G1 X-17.78 Y-66.8 Z2.216 E981.861 F3000
G1 X-17.32 Y-66.8 Z2.217 F13500
G1 X-27.8 Y-48.65 Z2.307 E982.582 F3000
G1 X-27.8 Y-47.85 Z2.312 F13500
G1 X-16.86 Y-66.79 Z2.217 E983.335 F3000
G1 X-16.4 Y-66.79 Z2.218 F13500
G1 X-27.8 Y-47.05 Z2.315 E984.12 F3000
G1 X-27.8 Y-46.25 Z2.319 F13500
G1 X-15.94 Y-66.79 Z2.218 E984.937 F3000
G1 X-15.48 Y-66.79 Z2.219 F13500
G1 X-27.8 Y-45.45 Z2.322 E985.785 F3000
G1 X-27.8 Y-44.65 Z2.325 F13500
G1 X-15.01 Y-66.79 Z2.22 E986.665 F3000
G1 X-14.55 Y-66.79 Z2.22 F13500
G1 X-27.8 Y-43.85 Z2.329 E987.578 F3000
G1 X-27.8 Y-43.05 Z2.332 F13500
G1 X-14.09 Y-66.79 Z2.221 E988.521 F3000
G1 X-13.63 Y-66.79 Z2.221 F13500
G1 X-27.8 Y-42.25 Z2.336 E989.497 F3000
G1 X-27.8 Y-41.45 Z2.339 F13500
G1 X-13.16 Y-66.79 Z2.222 E990.504 F3000
G1 X-12.7 Y-66.79 Z2.222 F13500
G1 X-27.8 Y-40.65 Z2.343 E991.544 F3000
G1 X-27.8 Y-39.85 Z2.346 F13500
G1 X-12.24 Y-66.8 Z2.223 E992.615 F3000
G1 X-11.78 Y-66.8 Z2.224 F13500
G1 X-27.8 Y-39.05 Z2.35 E993.718 F3000
G1 X-27.8 Y-38.25 Z2.353 F13500
G1 X-11.32 Y-66.8 Z2.224 E994.852 F3000
G1 X-10.86 Y-66.8 Z2.225 F13500
G1 X-27.8 Y-37.45 Z2.357 E996.019 F3000
G1 X-27.8 Y-36.65 Z2.36 F13500
G1 X-10.39 Y-66.8 Z2.225 E997.217 F3000
G1 X-9.93 Y-66.8 Z2.226 F13500
G1 X-27.8 Y-35.85 Z2.364 E998.447 F3000
G1 X-27.8 Y-35.05 Z2.367 F13500
G1 X-9.47 Y-66.8 Z2.227 E999.709 F3000
G1 X-9.01 Y-66.8 Z2.227 F13500
G1 X-27.8 Y-34.25 Z2.371 E1001.003 F3000
G1 X-27.8 Y-33.45 Z2.374 F13500
G1 X-8.55 Y-66.79 Z2.228 E1002.329 F3000
G1 X-8.09 Y-66.79 Z2.228 F13500
G1 X-27.8 Y-32.65 Z2.378 E1003.686 F3000
G1 X-27.8 Y-31.85 Z2.381 F13500
G1 X-7.62 Y-66.79 Z2.229 E1005.075 F3000
G1 X-7.16 Y-66.79 Z2.229 F13500
G1 X-27.8 Y-31.05 Z2.385 E1006.496 F3000
G1 X-27.8 Y-30.25 Z2.388 F13500
G1 X-6.7 Y-66.79 Z2.23 E1007.949 F3000
G1 X-6.24 Y-66.79 Z2.231 F13500
G1 X-27.8 Y-29.45 Z2.392 E1009.433 F3000
G1 X-27.8 Y-28.65 Z2.395 F13500
G1 X-5.78 Y-66.79 Z2.231 E1010.95 F3000
G1 X-5.31 Y-66.79 Z2.232 F13500
G1 X-27.8 Y-27.85 Z2.399 E1012.498 F3000
G1 X-27.8 Y-27.05 Z2.402 F13500
G1 X-4.85 Y-66.79 Z2.232 E1014.078 F3000
G1 X-4.39 Y-66.8 Z2.233 F13500
G1 X-27.8 Y-26.25 Z2.406 E1015.69 F3000
G1 X-27.8 Y-25.45 Z2.409 F13500
G1 X-3.93 Y-66.8 Z2.233 E1017.333 F3000
G1 X-3.47 Y-66.8 Z2.234 F13500
G1 X-27.8 Y-24.65 Z2.413 E1019.009 F3000
G1 X-27.8 Y-23.85 Z2.416 F13500
G1 X-3 Y-66.8 Z2.235 E1020.716 F3000
G1 X-2.54 Y-66.8 Z2.235 F13500
G1 X-27.8 Y-23.05 Z2.42 E1022.455 F3000
G1 X-27.8 Y-22.25 Z2.423 F13500
G1 X-2.08 Y-66.8 Z2.236 E1024.226 F3000
G1 X-1.62 Y-66.8 Z2.236 F13500
G1 X-27.8 Y-21.45 Z2.427 E1026.028 F3000
G1 X-27.8 Y-20.65 Z2.43 F13500
G1 X-1.16 Y-66.8 Z2.237 E1027.863 F3000
G1 X-0.69 Y-66.8 Z2.237 F13500
G1 X-27.8 Y-19.85 Z2.434 E1029.729 F3000
G1 X-27.8 Y-19.05 Z2.437 F13500
G1 X-0.23 Y-66.79 Z2.238 E1031.627 F3000
G1 X0.23 Y-66.79 Z2.24 F13500
G1 X-27.8 Y-18.25 Z2.441 E1033.557 F3000
G1 X-27.8 Y-17.45 Z2.444 F13500
G1 X0.69 Y-66.79 Z2.243 E1035.518 F3000
G1 X1.15 Y-66.79 Z2.247 F13500
G1 X-27.8 Y-16.65 Z2.448 E1037.512 F3000
G1 X-27.8 Y-15.85 Z2.45 F13500
G1 X1.61 Y-66.79 Z2.25 E1039.537 F3000
G1 X2.08 Y-66.79 Z2.254 F13500
G1 X-27.8 Y-15.05 Z2.45 E1041.594 F3000
G1 X-27.8 Y-14.25 Z2.449 F13500
G1 X2.54 Y-66.79 Z2.257 E1043.683 F3000
G1 X3 Y-66.8 Z2.26 F13500
G1 X-27.8 Y-13.45 Z2.448 E1045.804 F3000
G1 X-27.8 Y-12.65 Z2.448 F13500
G1 X3.46 Y-66.8 Z2.264 E1047.956 F3000
G1 X3.92 Y-66.8 Z2.267 F13500
G1 X-27.8 Y-11.85 Z2.447 E1050.14 F3000
G1 X-27.8 Y-11.05 Z2.446 F13500
G1 X4.39 Y-66.8 Z2.27 E1052.356 F3000
G1 X4.85 Y-66.8 Z2.274 F13500
G1 X-27.8 Y-10.25 Z2.446 E1054.604 F3000
G1 X-27.8 Y-9.45 Z2.445 F13500
G1 X5.31 Y-66.8 Z2.277 E1056.884 F3000
G1 X5.77 Y-66.8 Z2.281 F13500
G1 X-27.8 Y-8.65 Z2.444 E1059.196 F3000
G1 X-27.8 Y-7.85 Z2.444 F13500
G1 X6.23 Y-66.8 Z2.284 E1061.539 F3000
G1 X6.7 Y-66.8 Z2.287 F13500
G1 X-27.8 Y-7.05 Z2.443 E1063.914 F3000
G1 X-27.8 Y-6.25 Z2.442 F13500
G1 X7.16 Y-66.8 Z2.291 E1066.321 F3000
G1 X7.62 Y-66.79 Z2.294 F13500
G1 X-27.8 Y-5.45 Z2.442 E1068.76 F3000
G1 X-27.8 Y-4.65 Z2.441 F13500
G1 X8.08 Y-66.79 Z2.298 E1071.23 F3000
G1 X8.54 Y-66.79 Z2.301 F13500
G1 X-27.8 Y-3.85 Z2.44 E1073.733 F3000
G1 X-27.8 Y-3.05 Z2.44 F13500
G1 X9 Y-66.79 Z2.304 E1076.267 F3000
G1 X9.47 Y-66.79 Z2.308 F13500
G1 X-27.8 Y-2.25 Z2.439 E1078.833 F3000
G1 X-27.8 Y-1.45 Z2.439 F13500
G1 X9.93 Y-66.79 Z2.311 E1081.43 F3000
G1 X10.39 Y-66.79 Z2.314 F13500
G1 X-27.8 Y-0.65 Z2.438 E1084.06 F3000
G1 X-27.8 Y0.15 Z2.437 F13500
G1 X10.85 Y-66.8 Z2.318 E1086.721 F3000
G1 X11.31 Y-66.8 Z2.321 F13500
G1 X-27.8 Y0.95 Z2.435 E1089.414 F3000
G1 X-27.8 Y1.75 Z2.432 F13500
G1 X11.77 Y-66.8 Z2.325 E1092.139 F3000
G1 X12.24 Y-66.8 Z2.328 F13500
G1 X-27.8 Y2.55 Z2.43 E1094.896 F3000
G1 X-27.8 Y3.35 Z2.428 F13500
G1 X12.7 Y-66.8 Z2.331 E1097.685 F3000
G1 X13.16 Y-66.8 Z2.335 F13500
G1 X-27.8 Y4.14 Z2.425 E1100.505 F3000
G1 X-27.8 Y4.95 Z2.423 F13500
G1 X13.62 Y-66.8 Z2.338 E1103.357 F3000
G1 X14.09 Y-66.8 Z2.341 F13500
G1 X-27.8 Y5.75 Z2.421 E1106.241 F3000
G1 X-27.8 Y6.55 Z2.418 F13500
G1 X14.55 Y-66.8 Z2.345 E1109.157 F3000
G1 X15.01 Y-66.8 Z2.348 F13500
G1 X-27.8 Y7.34 Z2.416 E1112.105 F3000
G1 X-27.8 Y8.15 Z2.414 F13500
G1 X15.47 Y-66.8 Z2.352 E1115.084 F3000
G1 X15.93 Y-66.79 Z2.355 F13500
G1 X-27.8 Y8.94 Z2.411 E1118.095 F3000
G1 X-27.8 Y9.75 Z2.409 F13500
G1 X16.39 Y-66.79 Z2.358 E1121.138 F3000
G1 X16.86 Y-66.79 Z2.362 F13500
G1 X-27.8 Y10.55 Z2.407 E1124.213 F3000
G1 X-27.8 Y11.35 Z2.404 F13500
G1 X17.32 Y-66.79 Z2.365 E1127.32 F3000
G1 X17.78 Y-66.79 Z2.369 F13500
G1 X-27.8 Y12.15 Z2.402 E1130.458 F3000
G1 X-27.8 Y12.94 Z2.4 F13500
G1 X18.24 Y-66.79 Z2.372 E1133.628 F3000
G1 X18.7 Y-66.8 Z2.375 F13500
G1 X-27.8 Y13.75 Z2.397 E1136.83 F3000
G1 X-27.8 Y14.55 Z2.395 F13500
G1 X19.17 Y-66.8 Z2.379 E1140.064 F3000
G1 X19.63 Y-66.8 Z2.382 F13500
G1 X-27.8 Y15.35 Z2.393 E1143.33 F3000
G1 X-27.8 Y16.15 Z2.391 F13500
G1 X20.09 Y-66.8 Z2.385 E1146.627 F3000
G1 X20.55 Y-66.8 Z2.389 F13500
G1 X-27.8 Y16.94 Z2.391 E1149.957 F3000
G1 X-27.8 Y17.75 Z2.391 F13500
G1 X21.01 Y-66.8 Z2.392 E1153.318 F3000
G1 X21.48 Y-66.8 Z2.396 F13500
G1 X-27.8 Y18.55 Z2.391 E1156.711 F3000
G1 X-27.8 Y19.35 Z2.391 F13500
G1 X21.94 Y-66.8 Z2.399 E1160.135 F3000
G1 X22.4 Y-66.8 Z2.402 F13500
G1 X-27.8 Y20.15 Z2.392 E1163.592 F3000
G1 X-27.8 Y20.94 Z2.392 F13500
G1 X22.86 Y-66.8 Z2.406 E1167.08 F3000
G1 X23.32 Y-66.8 Z2.409 F13500
G1 X-27.8 Y21.75 Z2.392 E1170.6 F3000
G1 X-27.8 Y22.55 Z2.392 F13500
G1 X23.78 Y-66.8 Z2.413 E1174.152 F3000
G1 X24.25 Y-66.79 Z2.416 F13500
G1 X-27.8 Y23.35 Z2.392 E1177.736 F3000
G1 X-27.8 Y24.15 Z2.392 F13500
G1 X24.71 Y-66.79 Z2.419 E1181.351 F3000
G1 X25.15 Y-66.75 Z2.423 F13500
G1 X-27.8 Y24.95 Z2.393 E1184.997 F3000
G1 X-27.8 Y25.75 Z2.393 F13500
G1 X25.35 Y-66.31 Z2.427 E1188.657 F3000
G1 X25.56 Y-65.87 Z2.431 F13500
G1 X-27.8 Y26.55 Z2.393 E1192.331 F3000
G1 X-27.8 Y27.35 Z2.393 F13500
G1 X25.82 Y-65.53 Z2.435 E1196.023 F3000
G1 X26.09 Y-65.2 Z2.439 F13500
G1 X-27.8 Y28.15 Z2.393 E1199.734 F3000
G1 X-27.8 Y28.95 Z2.393 F13500
G1 X26.4 Y-64.92 Z2.442 E1203.466 F3000
G1 X26.72 Y-64.68 Z2.446 F13500
G1 X-27.8 Y29.75 Z2.394 E1207.22 F3000
G1 X-27.8 Y30.55 Z2.394 F13500
G1 X27.05 Y-64.44 Z2.45 E1210.996 F3000
G1 X27.42 Y-64.3 Z2.453 F13500
G1 X-27.8 Y31.35 Z2.394 E1214.799 F3000
G1 X-27.8 Y32.15 Z2.394 F13500
G1 X27.8 Y-64.15 Z2.457 E1218.627 F3000
G1 X27.8 Y-63.35 Z2.462 F13500
G1 X-27.8 Y32.95 Z2.394 E1222.456 F3000
G1 X-27.8 Y33.75 Z2.395 F13500
G1 X27.8 Y-62.55 Z2.466 E1226.284 F3000
G1 X27.8 Y-61.75 Z2.471 F13500
G1 X-27.8 Y34.55 Z2.395 E1230.113 F3000
G1 X-27.8 Y35.35 Z2.395 F13500
G1 X27.8 Y-60.95 Z2.475 E1233.941 F3000
G1 X27.8 Y-60.15 Z2.48 F13500
G1 X-27.8 Y36.15 Z2.395 E1237.769 F3000
G1 X-27.8 Y36.95 Z2.395 F13500
G1 X27.8 Y-59.35 Z2.485 E1241.598 F3000
G1 X27.8 Y-58.55 Z2.489 F13500
G1 X-27.8 Y37.75 Z2.395 E1245.426 F3000
G1 X-27.8 Y38.55 Z2.396 F13500
G1 X27.8 Y-57.75 Z2.494 E1249.255 F3000
G1 X27.8 Y-56.95 Z2.498 F13500
G1 X-27.8 Y39.35 Z2.396 E1253.083 F3000
G1 X-27.8 Y40.15 Z2.396 F13500
G1 X27.8 Y-56.15 Z2.503 E1256.912 F3000
G1 X27.8 Y-55.35 Z2.507 F13500
G1 X-27.8 Y40.95 Z2.396 E1260.74 F3000
G1 X-27.8 Y41.75 Z2.396 F13500
G1 X27.8 Y-54.55 Z2.512 E1264.569 F3000
G1 X27.8 Y-53.75 Z2.517 F13500
G1 X-27.8 Y42.55 Z2.396 E1268.397 F3000
G1 X-27.8 Y43.35 Z2.397 F13500
G1 X27.8 Y-52.95 Z2.521 E1272.225 F3000
G1 X27.8 Y-52.15 Z2.526 F13500
G1 X-27.8 Y44.15 Z2.397 E1276.054 F3000
G1 X-27.8 Y44.95 Z2.397 F13500
G1 X27.8 Y-51.35 Z2.53 E1279.882 F3000
G1 X27.8 Y-50.55 Z2.535 F13500
G1 X-11.09 Y16.8 Z2.531 E1282.56 F3000
G1 X-11.19 Y16.99 Z2.53 F13500
G1 X-27.8 Y45.75 Z2.397 E1283.703 F3000
G1 X-27.8 Y46.55 Z2.397 F13500
G1 X-11.19 Y17.79 Z2.53 E1284.846 F3000
G1 X-11.19 Y18.59 Z2.53 F13500
G1 X-27.8 Y47.35 Z2.397 E1285.989 F3000
G1 X-27.8 Y48.15 Z2.398 F13500
G1 X-11.2 Y19.39 Z2.53 E1287.133 F3000
G1 X-11.2 Y20.19 Z2.528 F13500
G1 X-27.8 Y48.94 Z2.395 E1288.276 F3000
G1 X-27.8 Y49.75 Z2.392 F13500
G1 X-11.2 Y20.99 Z2.525 E1289.419 F3000
G1 X-11.19 Y21.79 Z2.522 F13500
G1 X-27.8 Y50.55 Z2.389 E1290.562 F3000
G1 X-27.8 Y51.35 Z2.386 F13500
G1 X-11.19 Y22.59 Z2.519 E1291.705 F3000
G1 X-11.19 Y23.39 Z2.516 F13500
G1 X-27.8 Y52.15 Z2.383 E1292.848 F3000
G1 X-27.8 Y52.95 Z2.38 F13500
G1 X-11.2 Y24.19 Z2.513 E1293.992 F3000
G1 X-11.2 Y24.99 Z2.51 F13500
G1 X-27.8 Y53.75 Z2.378 E1295.135 F3000
G1 X-27.8 Y54.55 Z2.375 F13500
G1 X-11.2 Y25.79 Z2.508 E1296.278 F3000
G1 X-11.19 Y26.59 Z2.505 F13500
G1 X-27.8 Y55.35 Z2.372 E1297.421 F3000
G1 X-27.8 Y56.15 Z2.369 F13500
G1 X-11.19 Y27.39 Z2.502 E1298.564 F3000
G1 X-11.19 Y28.19 Z2.499 F13500
G1 X-27.8 Y56.95 Z2.366 E1299.707 F3000
G1 X-27.8 Y57.75 Z2.363 F13500
G1 X-11.2 Y28.99 Z2.496 E1300.851 F3000
G1 X-11.2 Y29.79 Z2.493 F13500
G1 X-27.8 Y58.55 Z2.36 E1301.994 F3000
G1 X-27.8 Y59.35 Z2.358 F13500
G1 X-11.2 Y30.59 Z2.49 E1303.137 F3000
G1 X-11.19 Y31.39 Z2.488 F13500
G1 X-27.8 Y60.15 Z2.355 E1304.28 F3000
G1 X-27.8 Y60.95 Z2.352 F13500
G1 X-11.19 Y32.19 Z2.485 E1305.423 F3000
G1 X-11.2 Y32.99 Z2.482 F13500
G1 X-27.8 Y61.75 Z2.349 E1306.566 F3000
G1 X-27.8 Y62.55 Z2.346 F13500
G1 X-11.2 Y33.79 Z2.479 E1307.71 F3000
G1 X-11.2 Y34.59 Z2.476 F13500
G1 X-27.8 Y63.35 Z2.343 E1308.853 F3000
G1 X-27.8 Y64.15 Z2.34 F13500
G1 X-11.2 Y35.39 Z2.473 E1309.996 F3000
G1 X-11.2 Y36.19 Z2.47 F13500
G1 X-27.42 Y64.29 Z2.341 E1311.113 F3000
G1 X-27.07 Y64.48 Z2.341 F13500
G1 X-11.19 Y36.99 Z2.468 E1312.206 F3000
G1 X-11.2 Y37.79 Z2.465 F13500
G1 X-26.72 Y64.68 Z2.341 E1313.275 F3000
G1 X-26.4 Y64.93 Z2.34 F13500
G1 X-11.2 Y38.59 Z2.462 E1314.322 F3000
G1 X-11.2 Y39.39 Z2.459 F13500
G1 X-26.11 Y65.22 Z2.34 E1315.349 F3000
G1 X-25.82 Y65.52 Z2.339 F13500
G1 X-11.2 Y40.19 Z2.456 E1316.355 F3000
G1 X-11.2 Y40.99 Z2.453 F13500
G1 X-25.58 Y65.9 Z2.338 E1317.346 F3000
G1 X-25.34 Y66.29 Z2.337 F13500
G1 X-11.2 Y41.79 Z2.45 E1318.319 F3000
G1 X-11.2 Y42.59 Z2.448 F13500
G1 X-25.17 Y66.79 Z2.336 E1319.282 F3000
G1 X-24.71 Y66.8 Z2.337 F13500
G1 X-11.2 Y43.39 Z2.445 E1320.212 F3000
G1 X-11.2 Y44.19 Z2.442 F13500
G1 X-24.25 Y66.8 Z2.337 E1321.111 F3000
G1 X-23.79 Y66.8 Z2.338 F13500
G1 X-11.2 Y44.99 Z2.439 E1321.978 F3000
G1 X-11.2 Y45.79 Z2.436 F13500
G1 X-23.32 Y66.8 Z2.339 E1322.813 F3000
G1 X-22.86 Y66.8 Z2.34 F13500
G1 X-11.2 Y46.59 Z2.433 E1323.616 F3000
G1 X-11.2 Y47.39 Z2.43 F13500
G1 X-22.4 Y66.8 Z2.341 E1324.388 F3000
G1 X-21.94 Y66.8 Z2.342 F13500
G1 X-11.2 Y48.19 Z2.428 E1325.128 F3000
G1 X-11.2 Y48.99 Z2.425 F13500
G1 X-21.48 Y66.8 Z2.342 E1325.836 F3000
G1 X-21.01 Y66.8 Z2.343 F13500
G1 X-11.2 Y49.79 Z2.422 E1326.512 F3000
G1 X-11.2 Y50.59 Z2.419 F13500
G1 X-20.55 Y66.8 Z2.344 E1327.156 F3000
G1 X-20.09 Y66.8 Z2.345 F13500
G1 X-11.2 Y51.39 Z2.416 E1327.768 F3000
G1 X-11.2 Y52.19 Z2.413 F13500
G1 X-19.63 Y66.8 Z2.346 E1328.349 F3000
G1 X-19.17 Y66.8 Z2.347 F13500
G1 X-11.2 Y52.99 Z2.41 E1328.898 F3000
G1 X-11.2 Y53.79 Z2.408 F13500
G1 X-18.7 Y66.8 Z2.347 E1329.415 F3000
G1 X-18.24 Y66.8 Z2.348 F13500
G1 X-11.2 Y54.59 Z2.405 E1329.9 F3000
G1 X-11.2 Y55.39 Z2.402 F13500
G1 X-17.78 Y66.8 Z2.349 E1330.354 F3000
G1 X-17.32 Y66.8 Z2.35 F13500
G1 X-11.2 Y56.19 Z2.399 E1330.775 F3000
G1 X-11.2 Y56.99 Z2.396 F13500
G1 X-16.86 Y66.8 Z2.351 E1331.165 F3000
G1 X-16.4 Y66.8 Z2.352 F13500
G1 X-11.2 Y57.79 Z2.393 E1331.523 F3000
G1 X-11.2 Y58.59 Z2.39 F13500
G1 X-15.93 Y66.8 Z2.353 E1331.85 F3000
G1 X-15.47 Y66.8 Z2.353 F13500
G1 X-11.2 Y59.39 Z2.388 E1332.144 F3000
G1 X-11.2 Y60.19 Z2.385 F13500
G1 X-15.01 Y66.8 Z2.354 E1332.407 F3000
G1 X-14.55 Y66.8 Z2.355 F13500
G1 X-11.2 Y60.99 Z2.382 E1332.637 F3000
G1 X-11.2 Y61.79 Z2.379 F13500
G1 X-14.09 Y66.8 Z2.356 E1332.836 F3000
G1 X-13.62 Y66.8 Z2.357 F13500
G1 X-11.2 Y62.59 Z2.376 E1333.004 F3000
G1 X-11.2 Y63.39 Z2.373 F13500
G1 X-13.16 Y66.8 Z2.358 E1333.139 F3000
G1 X-12.7 Y66.8 Z2.358 F13500
G1 X-11.2 Y64.19 Z2.37 E1333.243 F3000
G1 X-11.2 Y64.99 Z2.368 F13500
G1 X-12.24 Y66.8 Z2.359 E1333.314 F3000
G1 X-11.78 Y66.8 Z2.36 F13500
G1 X-11.2 Y65.79 Z2.365 E1333.354 F3000
G1 X-11.2 Y66.59 Z2.362 F13500
G1 X-11.31 Y66.8 Z2.361 E1333.362 F3000
G1  E1330.362 F6600
G1 X-11.31 Y66.8 Z5.361
G1 X-10.6 Y66.79 Z5.362 F13500
G1 X-10.54 Y17.46 Z5.536
G1 X15.54 Y17.46 Z5.627
G1 X15.6 Y66.35 Z5.506
G1 X16.2 Y66.34 Z5.511
G1 X16.2 Y66.34 Z5.511
G1 X16.2 Y66.34 Z2.511
G1  E1333.362 F6600
G1 X27.8 Y46.25 Z2.664 E1334.161 F3000
G1 X27.8 Y45.45 Z2.662 F13500
G1 X16.2 Y65.54 Z2.514 E1334.96 F3000
G1 X16.2 Y64.74 Z2.517 F13500
G1 X27.8 Y44.65 Z2.66 E1335.759 F3000
G1 X27.8 Y43.85 Z2.659 F13500
G1 X16.2 Y63.94 Z2.52 E1336.558 F3000
G1 X16.2 Y63.14 Z2.522 F13500
G1 X27.8 Y43.05 Z2.657 E1337.356 F3000
G1 X27.8 Y42.25 Z2.656 F13500
G1 X16.2 Y62.34 Z2.525 E1338.155 F3000
G1 X16.2 Y61.54 Z2.528 F13500
G1 X27.8 Y41.45 Z2.654 E1338.954 F3000
G1 X27.8 Y40.65 Z2.652 F13500
G1 X16.2 Y60.74 Z2.531 E1339.753 F3000
G1 X16.2 Y59.94 Z2.534 F13500
G1 X27.8 Y39.85 Z2.651 E1340.552 F3000
G1 X27.8 Y39.05 Z2.649 F13500
G1 X16.2 Y59.14 Z2.537 E1341.35 F3000
G1 X16.2 Y58.34 Z2.54 F13500
G1 X27.8 Y38.25 Z2.647 E1342.149 F3000
G1 X27.8 Y37.45 Z2.646 F13500
G1 X16.2 Y57.54 Z2.542 E1342.948 F3000
G1 X16.2 Y56.74 Z2.545 F13500
G1 X27.8 Y36.65 Z2.644 E1343.747 F3000
G1 X27.8 Y35.85 Z2.642 F13500
G1 X16.2 Y55.94 Z2.548 E1344.546 F3000
G1 X16.2 Y55.14 Z2.551 F13500
G1 X27.8 Y35.05 Z2.641 E1345.344 F3000
G1 X27.8 Y34.25 Z2.639 F13500
G1 X16.2 Y54.34 Z2.554 E1346.143 F3000
G1 X16.2 Y53.54 Z2.557 F13500
G1 X27.8 Y33.45 Z2.637 E1346.942 F3000
G1 X27.8 Y32.65 Z2.636 F13500
G1 X16.2 Y52.74 Z2.56 E1347.741 F3000
G1 X16.2 Y51.94 Z2.562 F13500
G1 X27.8 Y31.85 Z2.634 E1348.54 F3000
G1 X27.8 Y31.05 Z2.632 F13500
G1 X16.2 Y51.14 Z2.565 E1349.339 F3000
G1 X16.2 Y50.34 Z2.568 F13500
G1 X27.8 Y30.25 Z2.631 E1350.137 F3000
G1 X27.8 Y29.45 Z2.629 F13500
G1 X16.2 Y49.54 Z2.571 E1350.936 F3000
G1 X16.2 Y48.74 Z2.574 F13500
G1 X27.8 Y28.65 Z2.628 E1351.735 F3000
G1 X27.8 Y27.85 Z2.626 F13500
G1 X16.2 Y47.94 Z2.577 E1352.534 F3000
G1 X16.2 Y47.14 Z2.58 F13500
G1 X27.8 Y27.05 Z2.624 E1353.333 F3000
G1 X27.8 Y26.25 Z2.623 F13500
G1 X16.2 Y46.34 Z2.582 E1354.131 F3000
G1 X16.2 Y45.54 Z2.585 F13500
G1 X27.8 Y25.45 Z2.621 E1354.93 F3000
G1 X27.8 Y24.65 Z2.619 F13500
G1 X16.2 Y44.74 Z2.588 E1355.729 F3000
G1 X16.2 Y43.94 Z2.591 F13500
G1 X27.8 Y23.85 Z2.618 E1356.528 F3000
G1 X27.8 Y23.05 Z2.616 F13500
G1 X16.2 Y43.14 Z2.594 E1357.327 F3000
G1 X16.2 Y42.34 Z2.597 F13500
G1 X27.8 Y22.25 Z2.614 E1358.125 F3000
G1 X27.8 Y21.45 Z2.613 F13500
G1 X16.2 Y41.54 Z2.6 E1358.924 F3000
G1 X16.2 Y40.74 Z2.602 F13500
G1 X27.8 Y20.65 Z2.611 E1359.723 F3000
G1 X27.8 Y19.85 Z2.609 F13500
G1 X16.2 Y39.94 Z2.605 E1360.522 F3000
G1 X16.2 Y39.14 Z2.608 F13500
G1 X27.8 Y19.05 Z2.608 E1361.321 F3000
G1 X27.8 Y18.25 Z2.606 F13500
G1 X16.2 Y38.34 Z2.611 E1362.12 F3000
G1 X16.2 Y37.54 Z2.614 F13500
G1 X27.8 Y17.45 Z2.605 E1362.918 F3000
G1 X27.8 Y16.65 Z2.603 F13500
G1 X16.2 Y36.74 Z2.617 E1363.717 F3000
G1 X16.2 Y35.94 Z2.62 F13500
G1 X27.8 Y15.85 Z2.603 E1364.516 F3000
G1 X27.8 Y15.05 Z2.607 F13500
G1 X16.2 Y35.14 Z2.622 E1365.315 F3000
G1 X16.2 Y34.34 Z2.625 F13500
G1 X27.8 Y14.25 Z2.612 E1366.114 F3000
G1 X27.8 Y13.45 Z2.616 F13500
G1 X16.2 Y33.54 Z2.628 E1366.912 F3000
G1 X16.2 Y32.74 Z2.631 F13500
G1 X27.8 Y12.65 Z2.621 E1367.711 F3000
G1 X27.8 Y11.85 Z2.625 F13500
G1 X16.2 Y31.94 Z2.634 E1368.51 F3000
G1 X16.2 Y31.14 Z2.637 F13500
G1 X27.8 Y11.05 Z2.63 E1369.309 F3000
G1 X27.8 Y10.25 Z2.634 F13500
G1 X16.2 Y30.34 Z2.64 E1370.108 F3000
G1 X16.2 Y29.54 Z2.642 F13500
G1 X27.8 Y9.45 Z2.639 E1370.906 F3000
G1 X27.8 Y8.65 Z2.643 F13500
G1 X16.2 Y28.74 Z2.645 E1371.705 F3000
G1 X16.2 Y27.94 Z2.648 F13500
G1 X27.8 Y7.85 Z2.648 E1372.504 F3000
G1 X27.8 Y7.05 Z2.652 F13500
G1 X16.2 Y27.14 Z2.646 E1373.303 F3000
G1 X16.2 Y26.34 Z2.644 F13500
G1 X27.8 Y6.25 Z2.657 E1374.102 F3000
G1 X27.8 Y5.45 Z2.661 F13500
G1 X16.2 Y25.54 Z2.643 E1374.901 F3000
G1 X16.2 Y24.74 Z2.641 F13500
G1 X27.8 Y4.65 Z2.665 E1375.699 F3000
G1 X27.8 Y3.85 Z2.67 F13500
G1 X16.2 Y23.94 Z2.639 E1376.498 F3000
G1 X16.2 Y23.14 Z2.638 F13500
G1 X27.8 Y3.05 Z2.674 E1377.297 F3000
G1 X27.8 Y2.25 Z2.679 F13500
G1 X16.2 Y22.34 Z2.636 E1378.096 F3000
G1 X16.2 Y21.54 Z2.634 F13500
G1 X27.8 Y1.45 Z2.683 E1378.895 F3000
G1 X27.8 Y0.65 Z2.688 F13500
G1 X16.2 Y20.74 Z2.633 E1379.693 F3000
G1 X16.2 Y19.94 Z2.631 F13500
G1 X27.8 Y-0.15 Z2.692 E1380.492 F3000
G1 X27.8 Y-0.95 Z2.692 F13500
G1 X16.2 Y19.14 Z2.629 E1381.291 F3000
G1 X16.2 Y18.34 Z2.628 F13500
G1 X27.8 Y-1.75 Z2.692 E1382.09 F3000
G1 X27.8 Y-2.55 Z2.693 F13500
G1 X16.2 Y17.54 Z2.626 E1382.889 F3000
G1 X16.17 Y16.8 Z2.625 F13500
G1 X27.8 Y-3.35 Z2.693 E1383.69 F3000
G1 X27.8 Y-4.15 Z2.693 F13500
G1 X15.7 Y16.8 Z2.626 E1384.523 F3000
G1 X15.24 Y16.8 Z2.626 F13500
G1 X27.8 Y-4.95 Z2.693 E1385.387 F3000
G1 X27.8 Y-5.75 Z2.694 F13500
G1 X14.78 Y16.8 Z2.627 E1386.284 F3000
G1 X14.32 Y16.8 Z2.628 F13500
G1 X27.8 Y-6.55 Z2.694 E1387.212 F3000
G1 X27.8 Y-7.35 Z2.694 F13500
G1 X13.86 Y16.8 Z2.629 E1388.172 F3000
G1 X13.4 Y16.8 Z2.63 F13500
G1 X27.8 Y-8.15 Z2.695 E1389.164 F3000
G1 X27.8 Y-8.95 Z2.695 F13500
G1 X12.93 Y16.8 Z2.631 E1390.188 F3000
G1 X12.47 Y16.8 Z2.632 F13500
G1 X27.8 Y-9.75 Z2.695 E1391.243 F3000
G1 X27.8 Y-10.55 Z2.696 F13500
G1 X12.01 Y16.8 Z2.632 E1392.331 F3000
G1 X11.55 Y16.8 Z2.633 F13500
G1 X27.8 Y-11.35 Z2.696 E1393.45 F3000
G1 X27.8 Y-12.15 Z2.696 F13500
G1 X11.09 Y16.8 Z2.634 E1394.601 F3000
G1 X10.62 Y16.8 Z2.635 F13500
G1 X27.8 Y-12.95 Z2.697 E1395.784 F3000
G1 X27.8 Y-13.75 Z2.697 F13500
G1 X10.16 Y16.8 Z2.636 E1396.998 F3000
G1 X9.7 Y16.8 Z2.637 F13500
G1 X27.8 Y-14.55 Z2.697 E1398.245 F3000
G1 X27.8 Y-15.35 Z2.698 F13500
G1 X9.24 Y16.8 Z2.633 E1399.523 F3000
G1 X8.77 Y16.8 Z2.629 F13500
G1 X27.8 Y-16.15 Z2.697 E1400.833 F3000
G1 X27.8 Y-16.95 Z2.694 F13500
G1 X8.31 Y16.8 Z2.626 E1402.174 F3000
G1 X7.85 Y16.8 Z2.622 F13500
G1 X27.8 Y-17.75 Z2.69 E1403.548 F3000
G1 X27.8 Y-18.55 Z2.686 F13500
G1 X7.39 Y16.8 Z2.618 E1404.953 F3000
G1 X6.93 Y16.8 Z2.615 F13500
G1 X27.8 Y-19.35 Z2.683 E1406.391 F3000
G1 X27.8 Y-20.15 Z2.679 F13500
G1 X6.47 Y16.8 Z2.611 E1407.86 F3000
G1 X6 Y16.8 Z2.607 F13500
G1 X27.8 Y-20.95 Z2.675 E1409.36 F3000
G1 X27.8 Y-21.75 Z2.671 F13500
G1 X5.54 Y16.8 Z2.604 E1410.893 F3000
G1 X5.08 Y16.8 Z2.6 F13500
G1 X27.8 Y-22.55 Z2.668 E1412.458 F3000
G1 X27.8 Y-23.35 Z2.664 F13500
G1 X4.62 Y16.8 Z2.596 E1414.054 F3000
G1 X4.16 Y16.8 Z2.593 F13500
G1 X27.8 Y-24.15 Z2.66 E1415.682 F3000
G1 X27.8 Y-24.95 Z2.657 F13500
G1 X3.69 Y16.8 Z2.589 E1417.342 F3000
G1 X3.23 Y16.8 Z2.586 F13500
G1 X27.8 Y-25.75 Z2.653 E1419.033 F3000
G1 X27.8 Y-26.55 Z2.649 F13500
G1 X2.77 Y16.8 Z2.582 E1420.757 F3000
G1 X2.31 Y16.8 Z2.578 F13500
G1 X27.8 Y-27.35 Z2.645 E1422.512 F3000
G1 X27.8 Y-28.15 Z2.642 F13500
G1 X1.85 Y16.8 Z2.575 E1424.299 F3000
G1 X1.38 Y16.8 Z2.571 F13500
G1 X27.8 Y-28.95 Z2.638 E1426.118 F3000
G1 X27.8 Y-29.75 Z2.634 F13500
G1 X0.92 Y16.8 Z2.567 E1427.969 F3000
G1 X0.46 Y16.8 Z2.564 F13500
G1 X27.8 Y-30.55 Z2.63 E1429.851 F3000
G1 X27.8 Y-31.35 Z2.627 F13500
G1 X0 Y16.8 Z2.56 E1431.765 F3000
G1 X-0.46 Y16.8 Z2.559 F13500
G1 X27.8 Y-32.15 Z2.623 E1433.711 F3000
G1 X27.8 Y-32.95 Z2.619 F13500
G1 X-0.92 Y16.8 Z2.558 E1435.689 F3000
G1 X-1.38 Y16.8 Z2.557 F13500
G1 X27.8 Y-33.75 Z2.616 E1437.699 F3000
G1 X27.8 Y-34.55 Z2.612 F13500
G1 X-1.85 Y16.8 Z2.557 E1439.741 F3000
G1 X-2.31 Y16.8 Z2.556 F13500
G1 X27.8 Y-35.35 Z2.608 E1441.814 F3000
G1 X27.8 Y-36.15 Z2.604 F13500
G1 X-2.77 Y16.8 Z2.555 E1443.919 F3000
G1 X-3.23 Y16.8 Z2.554 F13500
G1 X27.8 Y-36.95 Z2.601 E1446.056 F3000
G1 X27.8 Y-37.75 Z2.597 F13500
G1 X-3.69 Y16.8 Z2.553 E1448.225 F3000
G1 X-4.16 Y16.8 Z2.552 F13500
G1 X27.8 Y-38.55 Z2.593 E1450.425 F3000
G1 X27.8 Y-39.35 Z2.589 F13500
G1 X-4.62 Y16.8 Z2.552 E1452.657 F3000
G1 X-5.08 Y16.8 Z2.551 F13500
G1 X27.8 Y-40.15 Z2.586 E1454.922 F3000
G1 X27.8 Y-40.95 Z2.582 F13500
G1 X-5.54 Y16.8 Z2.55 E1457.218 F3000
G1 X-6 Y16.8 Z2.549 F13500
G1 X27.8 Y-41.75 Z2.578 E1459.545 F3000
G1 X27.8 Y-42.55 Z2.575 F13500
G1 X-6.47 Y16.8 Z2.548 E1461.905 F3000
G1 X-6.93 Y16.8 Z2.547 F13500
G1 X27.8 Y-43.35 Z2.571 E1464.296 F3000
G1 X27.8 Y-44.15 Z2.567 F13500
G1 X-7.39 Y16.8 Z2.547 E1466.719 F3000
G1 X-7.85 Y16.8 Z2.546 F13500
G1 X27.8 Y-44.95 Z2.563 E1469.174 F3000
G1 X27.8 Y-45.75 Z2.56 F13500
G1 X-8.31 Y16.8 Z2.545 E1471.661 F3000
G1 X-8.77 Y16.8 Z2.544 F13500
G1 X27.8 Y-46.55 Z2.556 E1474.18 F3000
G1 X27.8 Y-47.35 Z2.552 F13500
G1 X-9.24 Y16.8 Z2.543 E1476.73 F3000
G1 X-9.7 Y16.8 Z2.542 F13500
G1 X27.8 Y-48.15 Z2.549 E1479.312 F3000
G1 X27.8 Y-48.95 Z2.544 F13500
G1 X-10.16 Y16.8 Z2.539 E1481.926 F3000
G1 X-10.62 Y16.8 Z2.535 F13500
G1 X27.8 Y-49.75 Z2.539 E1484.572 F3000
G1 X-26.08 Y-65.23 Z2.215 F13500
G1 X-26.08 Y-65.23 Z2.215
G1 X-27.8 Y-62.25 Z2.23 E1484.69 F3000
G1 X-27.8 Y-63.06 Z2.225 F13500
G1 X-26.95 Y-64.53 Z2.218 E1484.749 F3000
G1 X-27.57 Y-64.25 Z2.219 F13500
G1 X-27.8 Y-63.85 Z2.22 E1484.764 F3000
G1  E1481.764 F6600
G1 X-27.8 Y-63.85 Z5.22
G1 X12.95 Y17.42 Z5.632 F13500
G1 X15.54 Y17.46 Z5.627
G1 X15.49 Y22.49 Z5.638
G1 X27.8 Y47.05 Z5.665
G1 X27.8 Y47.05 Z5.665
G1 X27.8 Y47.05 Z2.665
G1  E1484.764 F6600
G1 X16.4 Y66.8 Z2.511 E1485.55 F3000
G1 X16.86 Y66.8 Z2.515 F13500
G1 X27.8 Y47.85 Z2.667 E1486.303 F3000
G1 X27.8 Y48.65 Z2.666 F13500
G1 X17.32 Y66.8 Z2.518 E1487.024 F3000
G1 X17.78 Y66.8 Z2.522 F13500
G1 X27.8 Y49.45 Z2.663 E1487.714 F3000
G1 X27.8 Y50.25 Z2.66 F13500
G1 X18.24 Y66.8 Z2.526 E1488.372 F3000
G1 X18.71 Y66.8 Z2.529 F13500
G1 X27.8 Y51.05 Z2.657 E1488.998 F3000
G1 X27.8 Y51.85 Z2.654 F13500
G1 X19.17 Y66.8 Z2.533 E1489.593 F3000
G1 X19.63 Y66.8 Z2.537 F13500
G1 X27.8 Y52.65 Z2.652 E1490.155 F3000
G1 X27.8 Y53.45 Z2.649 F13500
G1 X20.09 Y66.8 Z2.54 E1490.686 F3000
G1 X20.55 Y66.8 Z2.544 F13500
G1 X27.8 Y54.25 Z2.646 E1491.185 F3000
G1 X27.8 Y55.05 Z2.643 F13500
G1 X21.01 Y66.8 Z2.547 E1491.652 F3000
G1 X21.48 Y66.8 Z2.551 F13500
G1 X27.8 Y55.85 Z2.64 E1492.088 F3000
G1 X27.8 Y56.65 Z2.637 F13500
G1 X21.94 Y66.8 Z2.555 E1492.491 F3000
G1 X22.4 Y66.8 Z2.558 F13500
G1 X27.8 Y57.45 Z2.634 E1492.863 F3000
G1 X27.8 Y58.25 Z2.632 F13500
G1 X22.86 Y66.8 Z2.562 E1493.203 F3000
G1 X23.33 Y66.8 Z2.566 F13500
G1 X27.8 Y59.05 Z2.629 E1493.511 F3000
G1 X27.8 Y59.85 Z2.626 F13500
G1 X23.79 Y66.8 Z2.569 E1493.787 F3000
G1 X24.25 Y66.8 Z2.573 F13500
G1 X27.8 Y60.65 Z2.623 E1494.032 F3000
G1 X27.8 Y61.45 Z2.62 F13500
G1 X24.71 Y66.8 Z2.577 E1494.244 F3000
G1 X26.07 Y65.24 Z2.593 F13500
G1 X26.07 Y65.24 Z2.593
G1 X27.8 Y62.25 Z2.617 E1494.363 F3000
G1 X27.8 Y63.05 Z2.614 F13500
G1 X26.93 Y64.56 Z2.602 E1494.424 F3000
G1 X27.59 Y64.22 Z2.609 F13500
G1 X27.8 Y63.85 Z2.612 E1494.438 F3000
G1 X28.99 Y64.31 Z2.619 F13500
; TYPE:TOP-FILL
G1 X32.18 Y66.15 Z2.638 E1494.565 F1800
G1 X31.59 Y66.28 Z2.633 F13500
G1 X32.47 Y66.78 Z2.638 E1494.6 F1800
G1 X31.92 Y66.93 Z2.633 F13500
G1 X32.62 Y67.33 Z2.637 E1494.628 F1800
G1 X32.68 Y67.83 Z2.636 F13500
G1 X32.1 Y67.72 Z2.632 E1494.651 F1800
G1 X32.64 Y68.5 Z2.633 E1494.673
G1 X32.05 Y68.62 Z2.628 E1494.694
G1 X32.44 Y69.3 Z2.629 E1494.714
G1 X31.78 Y69.39 Z2.623 E1494.734
G1 X32.07 Y70.02 Z2.623 E1494.753
G1 X31.34 Y70.05 Z2.617 E1494.772
G1 X31.55 Y70.64 Z2.617 E1494.792
G1 X30.7 Y70.61 Z2.61 E1494.813
G1 X30.86 Y71.17 Z2.61 E1494.834
G1 X30.05 Y70.93 Z2.604 E1494.863
G1 X30.2 Y71.47 Z2.603 F13500
G1 X29.5 Y71.07 Z2.599 E1494.891 F1800
G1 X29.66 Y71.62 Z2.598 F13500
G1 X28.76 Y71.11 Z2.593 E1494.926 F1800
G1 X28.98 Y71.7 Z2.593 F13500
G1 X25.84 Y69.89 Z2.575 E1495.051 F1800
G1 X26.41 Y69.75 Z2.58 F13500
G1 X25.54 Y69.25 Z2.574 E1495.085 F1800
G1 X26.08 Y69.1 Z2.579 F13500
G1 X25.38 Y68.69 Z2.575 E1495.113 F1800
G1 X25.32 Y68.2 Z2.576 F13500
G1 X25.89 Y68.3 Z2.581 E1495.138 F1800
G1 X25.73 Y67.97 Z2.58 E1495.15
G1 X25.66 Y67.79 Z2.581 F13500
G1 X25.73 Y69.05 Z2.577
G1 X26.09 Y69.83 Z2.577
G1 X26.54 Y70.17 Z2.579
G1 X26.71 Y70.62 Z2.579
G1 X26.71 Y70.62 Z2.579
G1 X26.57 Y70.76 Z2.577
G1 X27.78 Y71.47 Z2.584 E1495.199 F1800
G1 X27.85 Y71.28 Z2.585 F13500
G1 X27.86 Y71.21 Z2.586
G1 X27.34 Y71.01 Z2.582
G1 X26.64 Y70.5 Z2.579
G1 X26.09 Y69.83 Z2.577
G1 X25.73 Y69.05 Z2.577
G1 X25.57 Y68.2 Z2.578
G1 X25.63 Y67.34 Z2.582
G1 X25.9 Y66.52 Z2.587
G1 X26.37 Y65.79 Z2.593
G1 X27.01 Y65.2 Z2.6
G1 X27.77 Y64.79 Z2.608
G1 X28.61 Y64.59 Z2.615
G1 X29.22 Y64.6 Z2.62
G1 X29.2 Y64.69 Z2.62
G1 X29.2 Y64.69 Z2.62
G1 X29.19 Y64.89 Z2.619
G1 X28.96 Y64.76 Z2.618 E1495.208 F1800
G1 X30.1 Y64.49 Z2.627 F13500
G1 X31.49 Y65.29 Z2.636 E1495.263 F1800
G1  E1492.263 F6600
G1 X31.49 Y65.29 Z5.636
G1 X31.35 Y65.43 Z5.634 F13500
G1 X31.2 Y65.44 Z5.633
G1 X30.3 Y64.82 Z5.628
G1 X29.47 Y64.6 Z5.622
G1 X28.61 Y64.59 Z5.615
G1 X27.77 Y64.79 Z5.608
G1 X27.01 Y65.2 Z5.6
G1 X26.62 Y65.65 Z5.596
G1 X15.6 Y66.15 Z5.507
G1 X15.54 Y17.46 Z5.627
G1 X-10.54 Y17.46 Z5.536
G1 X-10.54 Y67.46 Z5.36
G1 X-25.49 Y67.45 Z5.333
G1 X-25.6 Y68.05 Z5.331
G1 X-25.5 Y68.04 Z5.331
G1 X-25.5 Y68.04 Z5.331
G1 X-25.31 Y68.07 Z5.331
G1 X-25.31 Y68.07 Z2.331
G1  E1495.263 F6600
G1 X-25.66 Y68.09 Z2.33 E1495.269 F1800
G1 X-25.39 Y68.71 Z2.329 E1495.29
G1 X-25.99 Y68.82 Z2.327 E1495.31
G1 X-25.63 Y69.49 Z2.325 E1495.329
G1 X-26.31 Y69.57 Z2.324 E1495.349
G1 X-26.04 Y70.18 Z2.322 E1495.368
G1 X-26.8 Y70.2 Z2.321 E1495.388
G1 X-26.59 Y70.78 Z2.319 E1495.408
G1 X-27.5 Y70.72 Z2.318 E1495.43
G1 X-27.34 Y71.28 Z2.316 E1495.453
G1 X-28.18 Y71.02 Z2.315 E1495.483
G1 X-28.05 Y71.56 Z2.314 F13500
G1 X-28.83 Y71.11 Z2.314 E1495.514 F1800
G1 X-28.68 Y71.66 Z2.312 F13500
G1 X-29.75 Y71.04 Z2.312 E1495.556 F1800
G1 X-29.52 Y71.64 Z2.311 F13500
G1 X-31.92 Y70.25 Z2.311 E1495.652 F1800
G1 X-31.22 Y70.19 Z2.313 F13500
G1 X-32.35 Y69.54 Z2.313 E1495.697 F1800
G1 X-31.77 Y69.41 Z2.314 F13500
G1 X-32.55 Y68.96 Z2.315 E1495.728 F1800
G1 X-32.65 Y68.45 Z2.316 F13500
G1 X-32.06 Y68.56 Z2.317 E1495.753 F1800
G1 X-32.67 Y67.74 Z2.319 E1495.776
G1 X-32.09 Y67.61 Z2.32 E1495.798
G1 X-32.51 Y66.91 Z2.322 E1495.818
G1 X-31.88 Y66.81 Z2.324 E1495.837
G1 X-32.19 Y66.17 Z2.325 E1495.857
G1 X-31.48 Y66.12 Z2.327 E1495.876
G1 X-31.71 Y65.52 Z2.328 E1495.896
G1 X-30.89 Y65.53 Z2.33 E1495.916
G1 X-31.07 Y64.96 Z2.332 E1495.937
G1 X-30.06 Y65.09 Z2.333 E1495.96
G1 X-30.47 Y64.62 Z2.334 E1495.981
G1 X-29.97 Y64.45 Z2.335 F13500
G1 X-29.21 Y64.89 Z2.335 E1496.012 F1800
G1 X-29 Y64.55 Z2.337 F13500
G1 X-29.36 Y64.34 Z2.337 E1496.026 F1800
G1  E1493.026 F6600
G1 X-29.36 Y64.34 Z5.337
G1 X-29.33 Y64.54 Z5.336 F13500
G1 X-29.33 Y64.64 Z5.336
G1 X-28.45 Y64.49 Z5.338
G1 X-28.45 Y-64.49 Z5.216
G1 X-28.93 Y-64.59 Z5.215
G1 X-28.93 Y-64.49 Z5.215
G1 X-28.93 Y-64.49 Z5.215
G1 X-28.96 Y-64.29 Z5.217
G1 X-28.96 Y-64.29 Z2.217
G1  E1496.026 F6600
G1 X-32.18 Y-66.15 Z2.202 E1496.154 F1800
G1 X-31.62 Y-66.29 Z2.202 F13500
G1 X-32.46 Y-66.78 Z2.198 E1496.187 F1800
G1 X-31.93 Y-66.93 Z2.198 F13500
G1 X-32.65 Y-67.58 Z2.193 E1496.214 F1800
G1 X-32.09 Y-67.71 Z2.193 E1496.239
G1 X-32.64 Y-68.49 Z2.188 E1496.26
G1 X-32.04 Y-68.61 Z2.188 E1496.281
G1 X-32.43 Y-69.3 Z2.184 E1496.301
G1 X-31.78 Y-69.38 Z2.184 E1496.321
G1 X-32.07 Y-70.01 Z2.18 E1496.34
G1 X-31.33 Y-70.05 Z2.181 E1496.359
G1 X-31.55 Y-70.64 Z2.177 E1496.379
G1 X-30.69 Y-70.6 Z2.178 E1496.4
G1 X-30.86 Y-71.16 Z2.175 E1496.422
G1 X-30.13 Y-71.2 Z2.176 E1496.446
G1 X-29.5 Y-71.07 Z2.177 E1496.468
G1 X-29.65 Y-71.62 Z2.174 F13500
G1 X-28.75 Y-71.1 Z2.178 E1496.504 F1800
G1 X-28.98 Y-71.69 Z2.174 F13500
G1 X-25.84 Y-69.88 Z2.188 E1496.628 F1800
G1 X-26.43 Y-69.76 Z2.188 F13500
G1 X-25.54 Y-69.25 Z2.192 E1496.664 F1800
G1 X-26.08 Y-69.1 Z2.193 F13500
G1 X-25.38 Y-68.69 Z2.196 E1496.692 F1800
G1 X-25.32 Y-68.2 Z2.199 F13500
G1 X-25.9 Y-68.3 Z2.197 E1496.715 F1800
G1 X-25.52 Y-67.85 Z2.201 E1496.736
G1 X-25.64 Y-68.13 Z2.199 F13500
G1 X-25.9 Y-69.48 Z2.191
G1 X-26.32 Y-70.15 Z2.186
G1 X-26.51 Y-70.17 Z2.186
G1 X-26.71 Y-70.63 Z2.183
G1 X-26.71 Y-70.63 Z2.183
G1 X-26.57 Y-70.76 Z2.183
G1 X-27.78 Y-71.46 Z2.177 E1496.784 F1800
G1 X-27.84 Y-71.28 Z2.178 F13500
G1 X-27.85 Y-71.22 Z2.178
G1 X-27.69 Y-71.18 Z2.179
G1 X-26.94 Y-70.75 Z2.182
G1 X-26.32 Y-70.15 Z2.186
G1 X-25.9 Y-69.48 Z2.191
G1 X-25.63 Y-68.66 Z2.196
G1 X-25.57 Y-67.8 Z2.201
G1 X-25.72 Y-66.95 Z2.205
G1 X-26.09 Y-66.17 Z2.209
G1 X-26.64 Y-65.5 Z2.213
G1 X-27.34 Y-64.99 Z2.215
G1 X-28.14 Y-64.67 Z2.215
G1 X-29 Y-64.56 Z2.215
G1 X-29.22 Y-64.59 Z2.215
G1 X-29.2 Y-64.69 Z2.214
G1 X-29.2 Y-64.69 Z2.214
G1 X-29.18 Y-64.88 Z2.213
G1 X-28.92 Y-64.73 Z2.214 E1496.794 F1800
G1 X-30.1 Y-64.49 Z2.214 F13500
G1 X-31.49 Y-65.29 Z2.208 E1496.849 F1800
G1  E1493.849 F6600
G1 X-31.49 Y-65.29 Z5.208
G1 X-31.35 Y-65.43 Z5.207 F13500
G1 X-31.15 Y-65.44 Z5.207
G1 X-30.66 Y-64.99 Z5.21
G1 X-29.85 Y-64.67 Z5.213
G1 X-29 Y-64.56 Z5.215
G1 X-28.14 Y-64.67 Z5.215
G1 X-27.34 Y-64.99 Z5.215
G1 X-26.64 Y-65.5 Z5.213
G1 X-26.57 Y-65.65 Z5.212
G1 X15.64 Y-67.59 Z5.348
G1 X25.49 Y-67.45 Z5.421
G1 X25.6 Y-68.04 Z5.419
G1 X25.51 Y-68.04 Z5.418
G1 X25.51 Y-68.04 Z5.418
G1 X25.31 Y-68.06 Z5.416
G1 X25.31 Y-68.06 Z2.416
G1  E1496.849 F6600
G1 X25.8 Y-68.01 Z2.42 E1496.865 F1800
G1 X25.39 Y-68.71 Z2.413 E1496.886
G1 X26 Y-68.82 Z2.417 E1496.906
G1 X25.64 Y-69.49 Z2.411 E1496.926
G1 X26.31 Y-69.56 Z2.415 E1496.945
G1 X26.04 Y-70.18 Z2.41 E1496.964
G1 X26.81 Y-70.2 Z2.415 E1496.984
G1 X26.6 Y-70.78 Z2.41 E1497.005
G1 X27.51 Y-70.72 Z2.417 E1497.026
G1 X27.35 Y-71.27 Z2.413 E1497.05
G1 X28.23 Y-71 Z2.421 E1497.081
G1 X28.06 Y-71.56 Z2.417 F13500
G1 X28.86 Y-71.1 Z2.425 E1497.113 F1800
G1 X28.68 Y-71.66 Z2.421 F13500
G1 X29.88 Y-70.97 Z2.433 E1497.161 F1800
G1 X29.52 Y-71.64 Z2.427 F13500
G1 X31.92 Y-70.25 Z2.452 E1497.256 F1800
G1 X31.14 Y-70.24 Z2.447 F13500
G1 X32.35 Y-69.54 Z2.46 E1497.304 F1800
G1 X31.78 Y-69.41 Z2.456 F13500
G1 X32.56 Y-68.96 Z2.464 E1497.335 F1800
G1 X32.65 Y-68.45 Z2.468 F13500
G1 X32.04 Y-68.56 Z2.463 E1497.361 F1800
G1 X32.67 Y-67.74 Z2.472 E1497.385
G1 X32.09 Y-67.61 Z2.469 E1497.405
G1 X32.51 Y-66.9 Z2.476 E1497.426
G1 X31.88 Y-66.81 Z2.472 E1497.445
G1 X32.19 Y-66.17 Z2.478 E1497.465
G1 X31.49 Y-66.11 Z2.473 E1497.484
G1 X31.72 Y-65.52 Z2.478 E1497.504
G1 X30.9 Y-65.52 Z2.472 E1497.523
G1 X31.08 Y-64.96 Z2.476 E1497.545
G1 X30.09 Y-65.07 Z2.469 E1497.567
G1 X30.48 Y-64.62 Z2.474 E1497.588
G1 X29.98 Y-64.44 Z2.471 F13500
G1 X29.23 Y-64.88 Z2.463 E1497.617 F1800
G1 X28.88 Y-64.62 Z2.462 F13500
G1 X29.36 Y-64.34 Z2.467 E1497.637 F1800
G1  E1494.637 F6600
G1 X29.36 Y-64.34 Z5.467
G1 X29.36 Y-64.34 Z2.767 F13500
G1 X29.34 Y-64.54 Z2.766
G1 X29.37 Y-64.62 Z2.766
G1 X28.45 Y-64.49 Z2.76
G1 X28.45 Y64.49 Z2.914
G1 X29.75 Y64.69 Z2.924
G1 X30.48 Y64.94 Z2.929
G1 X31.12 Y65.34 Z2.932
G1 X31.66 Y65.88 Z2.935
G1 X32.06 Y66.53 Z2.936
G1 X32.31 Y67.25 Z2.935
G1 X32.4 Y68 Z2.933
G1 X32.31 Y68.75 Z2.93
G1 X32.06 Y69.47 Z2.925
G1 X31.66 Y70.12 Z2.92
G1 X31.12 Y70.66 Z2.913
G1 X30.48 Y71.06 Z2.907
G1 X29.75 Y71.31 Z2.9
G1 X29 Y71.4 Z2.894
G1 X28.25 Y71.31 Z2.888
G1 X27.52 Y71.06 Z2.884
G1 X26.88 Y70.66 Z2.88
G1 X26.34 Y70.12 Z2.878
G1 X25.94 Y69.47 Z2.877
G1 X25.69 Y68.75 Z2.877
G1 X25.49 Y67.45 Z2.88
G1 X15.54 Y67.46 Z2.802
G1 X15.54 Y17.46 Z2.927
G1 X-10.54 Y17.46 Z2.836
G1 X-10.54 Y67.46 Z2.66
G1 X-25.48 Y67.78 Z2.632
G1 X-25.47 Y67.76 Z2.632
G1 X-25.47 Y67.76 Z2.632
G1 X-25.18 Y67.8 Z2.632
G1 X-25.18 Y67.8 Z2.832
; LAYER:2
M106 S153
G1 X-25.18 Y67.8 Z2.532
G1 X-25.53 Y67.4 Z2.533
; TYPE:WALL-INNER
G1 X-25.53 Y67.4 Z2.533
G1  E1497.637 F6600
G1 X-25.69 Y68.76 Z2.528 E1497.684 F2400
G1 X-25.93 Y69.47 Z2.525 E1497.71
G1 X-26.34 Y70.12 Z2.522 E1497.736
G1 X-26.88 Y70.65 Z2.519 E1497.762
G1 X-27.53 Y71.06 Z2.516 E1497.788
G1 X-28.24 Y71.31 Z2.514 E1497.814
G1 X-29 Y71.4 Z2.512 E1497.841
G1 X-29.75 Y71.31 Z2.511 E1497.867
G1 X-30.47 Y71.06 Z2.511 E1497.893
G1 X-31.12 Y70.65 Z2.511 E1497.919
G1 X-31.65 Y70.12 Z2.512 E1497.945
G1 X-32.06 Y69.47 Z2.514 E1497.971
G1 X-32.31 Y68.76 Z2.516 E1497.997
G1 X-32.39 Y68 Z2.518 E1498.024
G1 X-32.31 Y67.24 Z2.521 E1498.05
G1 X-32.06 Y66.53 Z2.524 E1498.076
G1 X-31.65 Y65.88 Z2.527 E1498.102
G1 X-31.12 Y65.35 Z2.53 E1498.128
G1 X-30.47 Y64.94 Z2.533 E1498.155
G1 X-29.75 Y64.69 Z2.535 E1498.181
G1 X-28.4 Y64.54 Z2.538 E1498.228
G1 X-28.4 Y-64.53 Z2.416 E1502.671
G1 X-29.75 Y-64.69 Z2.413 E1502.718
G1 X-30.47 Y-64.93 Z2.411 E1502.744
G1 X-31.12 Y-65.34 Z2.408 E1502.771
G1 X-31.65 Y-65.88 Z2.404 E1502.797
G1 X-32.06 Y-66.53 Z2.4 E1502.823
G1 X-32.31 Y-67.24 Z2.396 E1502.849
G1 X-32.39 Y-68 Z2.391 E1502.875
G1 X-32.31 Y-68.75 Z2.387 E1502.901
G1 X-32.06 Y-69.47 Z2.383 E1502.927
G1 X-31.65 Y-70.12 Z2.38 E1502.954
G1 X-31.12 Y-70.65 Z2.378 E1502.98
